; generated by PrusaSlicer 2.1.1+linux64 on 2020-01-15 at 16:35:03 UTC

; 

; external perimeters extrusion width = 0.45mm
; perimeters extrusion width = 0.45mm
; infill extrusion width = 0.45mm
; solid infill extrusion width = 0.45mm
; top infill extrusion width = 0.40mm
; first layer extrusion width = 0.42mm

M107
M190 S60 ; set bed temperature and wait for it to be reached
M104 S215 ; set temperature
G28 ; home all axes
G1 Z5 F5000 ; lift nozzle
M109 S215 ; set temperature and wait for it to be reached
G21 ; set units to millimeters
G90 ; use absolute coordinates
M82 ; use absolute distances for extrusion
G92 E0
; Filament gcode
G1 Z0.350 F7800.000
G1 E-2.00000 F2400.00000
G92 E0
G1 X49.366 Y78.525 F7800.000
G1 E2.00000 F2400.00000
G1 F1800
G1 X50.199 Y78.133 E2.04616
G1 X51.080 Y77.870 E2.09232
G1 X51.991 Y77.741 E2.13849
G1 X95.117 Y75.334 E4.30621
G1 X104.606 Y75.328 E4.78241
G1 X148.134 Y77.751 E6.97027
G1 X149.155 Y77.927 E7.02226
G1 X150.132 Y78.271 E7.07426
G1 X151.038 Y78.774 E7.12626
G1 X151.847 Y79.421 E7.17825
G1 X152.416 Y80.039 E7.22042
G1 X152.899 Y80.734 E7.26290
G1 X153.280 Y81.483 E7.30507
G1 X153.557 Y82.283 E7.34754
G1 X156.053 Y94.193 E7.95826
G1 X156.172 Y95.364 E8.01731
G1 X156.172 Y104.649 E8.48330
G1 X156.092 Y105.596 E8.53100
G1 X153.556 Y117.719 E9.15256
G1 X152.981 Y119.124 E9.22876
G1 X152.080 Y120.346 E9.30496
G1 X151.227 Y121.094 E9.36187
G1 X150.253 Y121.673 E9.41877
G1 X149.188 Y122.065 E9.47568
G1 X148.071 Y122.254 E9.53259
G1 X104.883 Y124.666 E11.70339
G1 X95.375 Y124.672 E12.18051
G1 X51.787 Y122.242 E14.37145
G1 X50.562 Y121.992 E14.43418
G1 X49.418 Y121.504 E14.49661
G1 X48.395 Y120.797 E14.55903
G1 X47.535 Y119.898 E14.62146
G1 X46.858 Y118.818 E14.68541
G1 X46.417 Y117.616 E14.74968
G1 X43.896 Y105.517 E15.36994
G1 X43.828 Y104.642 E15.41395
G1 X43.830 Y95.240 E15.88579
G1 X43.950 Y94.174 E15.93963
G1 X46.479 Y82.157 E16.55595
G1 X46.819 Y81.263 E16.60395
G1 X47.297 Y80.427 E16.65226
G1 X47.895 Y79.681 E16.70027
G1 X48.601 Y79.035 E16.74828
G1 X49.316 Y78.558 E16.79143
G1 E14.79143 F2400.00000
G92 E0
G1 X103.700 Y84.800 F7800.000
G1 E2.00000 F2400.00000
G1 F1800
G1 X146.700 Y84.800 E4.15799
G1 X146.700 Y96.300 E4.73513
G1 X149.100 Y96.300 E4.85558
G1 X149.100 Y103.700 E5.22698
G1 X146.700 Y103.700 E5.34742
G1 X146.700 Y115.200 E5.92456
G1 X103.700 Y115.200 E8.08256
G1 X103.700 Y117.600 E8.20300
G1 X96.300 Y117.600 E8.57440
G1 X96.300 Y115.200 E8.69485
G1 X53.300 Y115.200 E10.85284
G1 X53.300 Y103.700 E11.42998
G1 X50.900 Y103.700 E11.55042
G1 X50.900 Y96.300 E11.92182
G1 X53.300 Y96.300 E12.04227
G1 X53.300 Y84.800 E12.61941
G1 X96.300 Y84.800 E14.77740
G1 X96.300 Y82.400 E14.89785
G1 X103.700 Y82.400 E15.26924
G1 X103.700 Y84.740 E15.38668
G1 X104.045 Y84.455 F7800.000
G1 F1800
G1 X147.045 Y84.455 E17.54467
G1 X147.045 Y95.955 E18.12181
G1 X149.445 Y95.955 E18.24226
G1 X149.445 Y104.045 E18.64827
G1 X147.045 Y104.045 E18.76872
G1 X147.045 Y115.545 E19.34586
G1 X104.045 Y115.545 E21.50385
G1 X104.045 Y117.945 E21.62430
G1 X95.955 Y117.945 E22.03031
G1 X95.955 Y115.545 E22.15076
G1 X52.955 Y115.545 E24.30875
G1 X52.955 Y104.045 E24.88589
G1 X50.555 Y104.045 E25.00634
G1 X50.555 Y95.955 E25.41235
G1 X52.955 Y95.955 E25.53280
G1 X52.955 Y84.455 E26.10994
G1 X95.955 Y84.455 E28.26793
G1 X95.955 Y82.055 E28.38838
G1 X104.045 Y82.055 E28.79439
G1 X104.045 Y84.395 E28.91183
G1 X104.390 Y84.110 F7800.000
G1 F1800
G1 X147.390 Y84.110 E31.06982
G1 X147.390 Y95.610 E31.64696
G1 X149.790 Y95.610 E31.76741
G1 X149.790 Y104.390 E32.20804
G1 X147.390 Y104.390 E32.32849
G1 X147.390 Y115.890 E32.90562
G1 X104.390 Y115.890 E35.06362
G1 X104.390 Y118.290 E35.18406
G1 X95.610 Y118.290 E35.62470
G1 X95.610 Y115.890 E35.74514
G1 X52.610 Y115.890 E37.90314
G1 X52.610 Y104.390 E38.48027
G1 X50.210 Y104.390 E38.60072
G1 X50.210 Y95.610 E39.04135
G1 X52.610 Y95.610 E39.16180
G1 X52.610 Y84.110 E39.73894
G1 X95.610 Y84.110 E41.89693
G1 X95.610 Y81.710 E42.01738
G1 X104.390 Y81.710 E42.45801
G1 X104.390 Y84.050 E42.57545
G1 X104.558 Y84.473 F7800.000
G1 X103.597 Y84.566
G1 F1800
G1 X101.689 Y82.658 E42.71089
G1 X102.177 Y82.658 E42.73539
G1 X103.442 Y83.923 E42.82517
G1 X103.442 Y83.435 E42.84967
G1 X102.665 Y82.658 E42.90480
G1 X103.153 Y82.658 E42.92930
G1 X103.597 Y83.102 E42.96079
G1 X103.934 Y84.903 F7800.000
G1 F1800
G1 X133.972 Y114.942 E45.09369
G1 X134.460 Y114.942 E45.11819
G1 X104.577 Y85.058 E47.24006
G1 X105.065 Y85.058 E47.26456
G1 X134.948 Y114.942 E49.38643
G1 X135.436 Y114.942 E49.41093
G1 X105.553 Y85.058 E51.53280
G1 X106.041 Y85.058 E51.55730
G1 X135.924 Y114.942 E53.67918
G1 X136.412 Y114.942 E53.70368
G1 X106.529 Y85.058 E55.82555
G1 X107.017 Y85.058 E55.85005
G1 X136.900 Y114.942 E57.97192
G1 X137.388 Y114.942 E57.99642
G1 X107.505 Y85.058 E60.11829
G1 X107.993 Y85.058 E60.14279
G1 X137.876 Y114.942 E62.26466
G1 X138.364 Y114.942 E62.28917
G1 X108.481 Y85.058 E64.41104
G1 X108.969 Y85.058 E64.43554
G1 X138.852 Y114.942 E66.55741
G1 X139.340 Y114.942 E66.58191
G1 X109.457 Y85.058 E68.70378
G1 X109.945 Y85.058 E68.72828
G1 X139.828 Y114.942 E70.85015
G1 X140.316 Y114.942 E70.87465
G1 X110.433 Y85.058 E72.99653
G1 X110.921 Y85.058 E73.02103
G1 X140.804 Y114.942 E75.14290
G1 X141.292 Y114.942 E75.16740
G1 X111.409 Y85.058 E77.28927
G1 X111.897 Y85.058 E77.31377
G1 X141.780 Y114.942 E79.43564
G1 X142.268 Y114.942 E79.46014
G1 X112.385 Y85.058 E81.58202
G1 X112.873 Y85.058 E81.60652
G1 X142.756 Y114.942 E83.72839
G1 X143.244 Y114.942 E83.75289
G1 X113.361 Y85.058 E85.87476
G1 X113.849 Y85.058 E85.89926
G1 X143.732 Y114.942 E88.02113
G1 X144.220 Y114.942 E88.04563
G1 X114.337 Y85.058 E90.16750
G1 X114.825 Y85.058 E90.19200
G1 X144.708 Y114.942 E92.31388
G1 X145.196 Y114.942 E92.33838
G1 X115.313 Y85.058 E94.46025
G1 X115.800 Y85.058 E94.48475
G1 X145.684 Y114.942 E96.60662
G1 X146.172 Y114.942 E96.63112
G1 X116.288 Y85.058 E98.75299
G1 X116.776 Y85.058 E98.77749
G1 X146.442 Y114.724 E100.88389
G1 X146.442 Y114.236 E100.90839
G1 X117.264 Y85.058 E102.98013
G1 X117.752 Y85.058 E103.00463
G1 X146.442 Y113.748 E105.04173
G1 X146.442 Y113.260 E105.06623
G1 X118.240 Y85.058 E107.06868
G1 X118.728 Y85.058 E107.09318
G1 X146.442 Y112.772 E109.06098
G1 X146.442 Y112.284 E109.08548
G1 X119.216 Y85.058 E111.01863
G1 X119.704 Y85.058 E111.04313
G1 X146.442 Y111.796 E112.94164
G1 X146.442 Y111.308 E112.96614
G1 X120.192 Y85.058 E114.82999
G1 X120.680 Y85.058 E114.85449
G1 X146.442 Y110.820 E116.68370
G1 X146.442 Y110.332 E116.70820
G1 X121.168 Y85.058 E118.50276
G1 X121.656 Y85.058 E118.52726
G1 X146.442 Y109.844 E120.28717
G1 X146.442 Y109.356 E120.31167
G1 X122.144 Y85.058 E122.03693
G1 X122.632 Y85.058 E122.06143
G1 X146.442 Y108.868 E123.75204
G1 X146.442 Y108.380 E123.77654
G1 X123.120 Y85.058 E125.43251
G1 X123.608 Y85.058 E125.45701
G1 X146.442 Y107.892 E127.07833
G1 X146.442 Y107.404 E127.10283
G1 X124.096 Y85.058 E128.68949
G1 X124.584 Y85.058 E128.71399
G1 X146.442 Y106.916 E130.26601
G1 X146.442 Y106.428 E130.29051
G1 X125.072 Y85.058 E131.80788
G1 X125.560 Y85.058 E131.83238
G1 X146.442 Y105.940 E133.31511
G1 X146.442 Y105.452 E133.33961
G1 X126.048 Y85.058 E134.78768
G1 X126.536 Y85.058 E134.81218
G1 X146.442 Y104.964 E136.22561
G1 X146.442 Y104.476 E136.25011
G1 X127.024 Y85.058 E137.62888
G1 X127.512 Y85.058 E137.65338
G1 X146.442 Y103.988 E138.99751
G1 X146.442 Y103.500 E139.02201
G1 X128.000 Y85.058 E140.33149
G1 X128.488 Y85.058 E140.35599
G1 X146.871 Y103.442 E141.66130
G1 X147.359 Y103.442 E141.68580
G1 X128.976 Y85.058 E142.99111
G1 X129.464 Y85.058 E143.01561
G1 X147.847 Y103.442 E144.32092
G1 X148.335 Y103.442 E144.34542
G1 X129.952 Y85.058 E145.65072
G1 X130.439 Y85.058 E145.67522
G1 X148.823 Y103.442 E146.98053
G1 X148.842 Y103.442 E146.98148
G1 X148.842 Y102.973 E147.00503
G1 X130.927 Y85.058 E148.27704
G1 X131.415 Y85.058 E148.30154
G1 X148.842 Y102.485 E149.53889
G1 X148.842 Y101.997 E149.56339
G1 X131.903 Y85.058 E150.76610
G1 X132.391 Y85.058 E150.79060
G1 X148.842 Y101.509 E151.95866
G1 X148.842 Y101.021 E151.98316
G1 X132.879 Y85.058 E153.11657
G1 X133.367 Y85.058 E153.14107
G1 X148.842 Y100.533 E154.23983
G1 X148.842 Y100.045 E154.26433
G1 X133.855 Y85.058 E155.32844
G1 X134.343 Y85.058 E155.35294
G1 X148.997 Y99.712 E156.39342
G1 E154.39342 F2400.00000
G92 E0
G1 X148.616 Y96.403 F7800.000
G1 E2.00000 F2400.00000
G1 F1800
G1 X148.842 Y96.629 E2.01603
G1 X148.842 Y97.117 E2.04053
G1 X148.283 Y96.558 E2.08019
G1 X147.795 Y96.558 E2.10469
G1 X148.842 Y97.605 E2.17899
G1 X148.842 Y98.093 E2.20349
G1 X147.307 Y96.558 E2.31245
G1 X146.819 Y96.558 E2.33695
G1 X148.842 Y98.581 E2.48055
G1 X148.842 Y99.069 E2.50505
G1 X134.831 Y85.058 E3.49987
G1 X135.319 Y85.058 E3.52437
G1 X146.442 Y96.181 E4.31412
G1 X146.442 Y95.693 E4.33862
G1 X135.807 Y85.058 E5.09373
G1 X136.295 Y85.058 E5.11823
G1 X146.442 Y95.205 E5.83868
G1 X146.442 Y94.717 E5.86318
G1 X136.783 Y85.058 E6.54899
G1 X137.271 Y85.058 E6.57349
G1 X146.442 Y94.229 E7.22465
G1 X146.442 Y93.741 E7.24915
G1 X137.759 Y85.058 E7.86567
G1 X138.247 Y85.058 E7.89017
G1 X146.442 Y93.253 E8.47203
G1 X146.442 Y92.765 E8.49653
G1 X138.735 Y85.058 E9.04374
G1 X139.223 Y85.058 E9.06824
G1 X146.442 Y92.277 E9.58081
G1 X146.442 Y91.789 E9.60531
G1 X139.711 Y85.058 E10.08323
G1 X140.199 Y85.058 E10.10773
G1 X146.442 Y91.301 E10.55100
G1 X146.442 Y90.813 E10.57550
G1 X140.687 Y85.058 E10.98412
G1 X141.175 Y85.058 E11.00862
G1 X146.442 Y90.325 E11.38259
G1 X146.442 Y89.837 E11.40709
G1 X141.663 Y85.058 E11.74642
G1 X142.151 Y85.058 E11.77092
G1 X146.442 Y89.349 E12.07560
G1 X146.442 Y88.861 E12.10010
G1 X142.639 Y85.058 E12.37012
G1 X143.127 Y85.058 E12.39462
G1 X146.442 Y88.373 E12.63000
G1 X146.442 Y87.885 E12.65450
G1 X143.615 Y85.058 E12.85523
G1 X144.103 Y85.058 E12.87973
G1 X146.442 Y87.397 E13.04582
G1 X146.442 Y86.909 E13.07032
G1 X144.591 Y85.058 E13.20175
G1 X145.079 Y85.058 E13.22625
G1 X146.442 Y86.421 E13.32304
G1 X146.442 Y85.934 E13.34754
G1 X145.566 Y85.058 E13.40967
G1 X146.054 Y85.058 E13.43417
G1 X146.597 Y85.601 E13.47268
G1 E11.47268 F2400.00000
G92 E0
G1 X133.640 Y115.097 F7800.000
G1 E2.00000 F2400.00000
G1 F1800
G1 X101.201 Y82.658 E4.30331
G1 X100.713 Y82.658 E4.32781
G1 X132.996 Y114.942 E6.62009
G1 X132.509 Y114.942 E6.64459
G1 X100.225 Y82.658 E8.93688
G1 X99.737 Y82.658 E8.96138
G1 X132.021 Y114.942 E11.25366
G1 X131.533 Y114.942 E11.27816
G1 X99.249 Y82.658 E13.57045
G1 X98.761 Y82.658 E13.59495
G1 X131.045 Y114.942 E15.88723
G1 X130.557 Y114.942 E15.91173
G1 X98.273 Y82.658 E18.20402
G1 X97.786 Y82.658 E18.22852
G1 X130.069 Y114.942 E20.52081
G1 X129.581 Y114.942 E20.54531
G1 X97.298 Y82.658 E22.83759
G1 X96.810 Y82.658 E22.86209
G1 X129.093 Y114.942 E25.15438
G1 X128.605 Y114.942 E25.17888
G1 X96.558 Y82.895 E27.45435
G1 X96.558 Y83.383 E27.47885
G1 X128.117 Y114.942 E29.71967
G1 X127.629 Y114.942 E29.74417
G1 X96.558 Y83.871 E31.95034
G1 X96.558 Y84.359 E31.97484
G1 X127.141 Y114.942 E34.14637
G1 X126.653 Y114.942 E34.17087
G1 X96.558 Y84.847 E36.30775
G1 X96.558 Y85.058 E36.31836
G1 X96.282 Y85.058 E36.33225
G1 X126.165 Y114.942 E38.45412
G1 X125.677 Y114.942 E38.47862
G1 X95.794 Y85.058 E40.60049
G1 X95.306 Y85.058 E40.62499
G1 X125.189 Y114.942 E42.74686
G1 X124.701 Y114.942 E42.77136
G1 X94.818 Y85.058 E44.89324
G1 X94.330 Y85.058 E44.91774
G1 X124.213 Y114.942 E47.03961
G1 X123.725 Y114.942 E47.06411
G1 X93.842 Y85.058 E49.18598
G1 X93.354 Y85.058 E49.21048
G1 X123.237 Y114.942 E51.33235
G1 X122.749 Y114.942 E51.35685
G1 X92.866 Y85.058 E53.47873
G1 X92.378 Y85.058 E53.50323
G1 X122.261 Y114.942 E55.62510
G1 X121.773 Y114.942 E55.64960
G1 X91.890 Y85.058 E57.77147
G1 X91.402 Y85.058 E57.79597
G1 X121.285 Y114.942 E59.91784
G1 X120.797 Y114.942 E59.94234
G1 X90.914 Y85.058 E62.06421
G1 X90.426 Y85.058 E62.08871
G1 X120.309 Y114.942 E64.21059
G1 X119.821 Y114.942 E64.23509
G1 X89.938 Y85.058 E66.35696
G1 X89.450 Y85.058 E66.38146
G1 X119.333 Y114.942 E68.50333
G1 X118.845 Y114.942 E68.52783
G1 X88.962 Y85.058 E70.64970
G1 X88.474 Y85.058 E70.67420
G1 X118.357 Y114.942 E72.79608
G1 X117.869 Y114.942 E72.82058
G1 X87.986 Y85.058 E74.94245
G1 X87.498 Y85.058 E74.96695
G1 X117.382 Y114.942 E77.08882
G1 X116.894 Y114.942 E77.11332
G1 X87.010 Y85.058 E79.23519
G1 X86.522 Y85.058 E79.25969
G1 X116.406 Y114.942 E81.38157
G1 X115.918 Y114.942 E81.40607
G1 X86.034 Y85.058 E83.52794
G1 X85.546 Y85.058 E83.55244
G1 X115.430 Y114.942 E85.67431
G1 X114.942 Y114.942 E85.69881
G1 X85.059 Y85.058 E87.82068
G1 X84.571 Y85.058 E87.84518
G1 X114.454 Y114.942 E89.96705
G1 X113.966 Y114.942 E89.99155
G1 X84.083 Y85.058 E92.11343
G1 X83.595 Y85.058 E92.13793
G1 X113.478 Y114.942 E94.25980
G1 X112.990 Y114.942 E94.28430
G1 X83.107 Y85.058 E96.40617
G1 X82.619 Y85.058 E96.43067
G1 X112.502 Y114.942 E98.55254
G1 X112.014 Y114.942 E98.57704
G1 X82.131 Y85.058 E100.69892
G1 X81.643 Y85.058 E100.72342
G1 X111.526 Y114.942 E102.84529
G1 X111.038 Y114.942 E102.86979
G1 X81.155 Y85.058 E104.99166
G1 X80.667 Y85.058 E105.01616
G1 X110.550 Y114.942 E107.13803
G1 X110.062 Y114.942 E107.16253
G1 X80.179 Y85.058 E109.28440
G1 X79.691 Y85.058 E109.30891
G1 X109.574 Y114.942 E111.43078
G1 X109.086 Y114.942 E111.45528
G1 X79.203 Y85.058 E113.57715
G1 X78.715 Y85.058 E113.60165
G1 X108.598 Y114.942 E115.72352
G1 X108.110 Y114.942 E115.74802
G1 X78.227 Y85.058 E117.86989
G1 X77.739 Y85.058 E117.89439
G1 X107.622 Y114.942 E120.01627
G1 X107.134 Y114.942 E120.04077
G1 X77.251 Y85.058 E122.16264
G1 X76.763 Y85.058 E122.18714
G1 X106.646 Y114.942 E124.30901
G1 X106.158 Y114.942 E124.33351
G1 X76.275 Y85.058 E126.45538
G1 X75.787 Y85.058 E126.47988
G1 X105.670 Y114.942 E128.60176
G1 X105.182 Y114.942 E128.62626
G1 X75.299 Y85.058 E130.74813
G1 X74.811 Y85.058 E130.77263
G1 X104.694 Y114.942 E132.89450
G1 X104.206 Y114.942 E132.91900
G1 X74.323 Y85.058 E135.04087
G1 X73.835 Y85.058 E135.06537
G1 X103.718 Y114.942 E137.18724
G1 X103.442 Y114.942 E137.20115
G1 X103.442 Y115.153 E137.21174
G1 X73.347 Y85.058 E139.34861
G1 X72.859 Y85.058 E139.37311
G1 X103.442 Y115.641 E141.54462
G1 X103.442 Y116.129 E141.56912
G1 X72.371 Y85.058 E143.77528
G1 X71.883 Y85.058 E143.79978
G1 X103.442 Y116.617 E146.04058
G1 X103.442 Y117.105 E146.06508
G1 X71.395 Y85.058 E148.34054
G1 X70.907 Y85.058 E148.36504
G1 X103.191 Y117.342 E150.65733
G1 X102.703 Y117.342 E150.68183
G1 X70.420 Y85.058 E152.97411
G1 X69.932 Y85.058 E152.99861
G1 X102.215 Y117.342 E155.29090
G1 X101.727 Y117.342 E155.31540
G1 X69.444 Y85.058 E157.60768
G1 X68.956 Y85.058 E157.63218
G1 X101.239 Y117.342 E159.92447
G1 X100.751 Y117.342 E159.94897
G1 X68.468 Y85.058 E162.24125
G1 X67.980 Y85.058 E162.26575
G1 X100.263 Y117.342 E164.55804
G1 X99.775 Y117.342 E164.58254
G1 X67.492 Y85.058 E166.87483
G1 X67.004 Y85.058 E166.89933
G1 X99.287 Y117.342 E169.19161
G1 X98.799 Y117.342 E169.21611
G1 X66.516 Y85.058 E171.50840
G1 X66.028 Y85.058 E171.53290
G1 X95.911 Y114.942 E173.65477
G1 X95.423 Y114.942 E173.67927
G1 X65.540 Y85.058 E175.80114
G1 X65.052 Y85.058 E175.82564
G1 X94.935 Y114.942 E177.94751
G1 X94.447 Y114.942 E177.97201
G1 X64.564 Y85.058 E180.09389
G1 X64.076 Y85.058 E180.11839
G1 X93.959 Y114.942 E182.24026
G1 X93.471 Y114.942 E182.26476
G1 X63.588 Y85.058 E184.38663
G1 X63.100 Y85.058 E184.41113
G1 X92.983 Y114.942 E186.53300
G1 X92.495 Y114.942 E186.55750
G1 X62.612 Y85.058 E188.67938
G1 X62.124 Y85.058 E188.70388
G1 X92.007 Y114.942 E190.82575
G1 X91.519 Y114.942 E190.85025
G1 X61.636 Y85.058 E192.97212
G1 X61.148 Y85.058 E192.99662
G1 X91.031 Y114.942 E195.11849
G1 X90.543 Y114.942 E195.14299
G1 X60.660 Y85.058 E197.26486
G1 X60.172 Y85.058 E197.28936
G1 X90.055 Y114.942 E199.41124
G1 X89.567 Y114.942 E199.43574
G1 X59.684 Y85.058 E201.55761
G1 X59.196 Y85.058 E201.58211
G1 X89.079 Y114.942 E203.70398
G1 X88.591 Y114.942 E203.72848
G1 X58.708 Y85.058 E205.85035
G1 X58.220 Y85.058 E205.87485
G1 X88.103 Y114.942 E207.99673
G1 X87.616 Y114.942 E208.02123
G1 X57.732 Y85.058 E210.14310
G1 X57.244 Y85.058 E210.16760
G1 X87.128 Y114.942 E212.28947
