; generated by PrusaSlicer 2.1.1+linux64 on 2020-01-15 at 16:43:20 UTC

; 

; external perimeters extrusion width = 0.45mm
; perimeters extrusion width = 0.45mm
; infill extrusion width = 0.45mm
; solid infill extrusion width = 0.45mm
; top infill extrusion width = 0.40mm
; first layer extrusion width = 0.42mm

M107
M190 S60 ; set bed temperature and wait for it to be reached
M104 S215 ; set temperature
G28 ; home all axes
G1 Z5 F5000 ; lift nozzle
M109 S215 ; set temperature and wait for it to be reached
G21 ; set units to millimeters
G90 ; use absolute coordinates
M82 ; use absolute distances for extrusion
G92 E0
; Filament gcode
G1 Z0.350 F7800.000
G1 E-2.00000 F2400.00000
G92 E0
G1 X50.566 Y78.525 F7800.000
G1 E2.00000 F2400.00000
G1 F1800
G1 X51.399 Y78.133 E2.04616
G1 X52.280 Y77.870 E2.09232
G1 X53.191 Y77.741 E2.13849
G1 X96.317 Y75.334 E4.30621
G1 X105.806 Y75.328 E4.78241
G1 X149.334 Y77.751 E6.97027
G1 X150.355 Y77.927 E7.02226
G1 X151.332 Y78.271 E7.07426
G1 X152.238 Y78.774 E7.12626
G1 X153.047 Y79.421 E7.17825
G1 X153.859 Y80.363 E7.24068
G1 X154.463 Y81.444 E7.30280
G1 X154.840 Y82.629 E7.36522
G1 X154.972 Y83.866 E7.42765
G1 X154.966 Y116.388 E9.05982
G1 X154.817 Y117.476 E9.11489
G1 X154.479 Y118.519 E9.16995
G1 X153.961 Y119.486 E9.22502
G1 X153.279 Y120.347 E9.28009
G1 X152.427 Y121.094 E9.33699
G1 X151.452 Y121.674 E9.39390
G1 X150.388 Y122.065 E9.45080
G1 X149.270 Y122.255 E9.50771
G1 X106.083 Y124.666 E11.67848
G1 X96.575 Y124.672 E12.15561
G1 X52.987 Y122.242 E14.34654
G1 X51.762 Y121.992 E14.40927
G1 X50.618 Y121.504 E14.47170
G1 X49.595 Y120.797 E14.53412
G1 X48.735 Y119.898 E14.59655
G1 X48.058 Y118.818 E14.66051
G1 X47.617 Y117.616 E14.72477
G1 X45.096 Y105.517 E15.34503
G1 X45.028 Y104.642 E15.38904
G1 X45.030 Y95.240 E15.86089
G1 X45.150 Y94.174 E15.91473
G1 X47.679 Y82.157 E16.53104
G1 X48.019 Y81.263 E16.57905
G1 X48.497 Y80.427 E16.62736
G1 X49.095 Y79.681 E16.67536
G1 X49.801 Y79.035 E16.72337
G1 X50.516 Y78.558 E16.76652
G1 E14.76652 F2400.00000
G92 E0
G1 X104.900 Y84.800 F7800.000
G1 E2.00000 F2400.00000
G1 F1800
G1 X147.900 Y84.800 E4.15799
G1 X147.900 Y94.500 E4.64482
G1 X143.500 Y94.500 E4.86564
G1 X143.500 Y105.500 E5.41766
G1 X147.900 Y105.500 E5.63848
G1 X147.900 Y115.200 E6.12530
G1 X104.900 Y115.200 E8.28330
G1 X104.900 Y117.600 E8.40374
G1 X97.500 Y117.600 E8.77514
G1 X97.500 Y115.200 E8.89559
G1 X54.500 Y115.200 E11.05358
G1 X54.500 Y103.700 E11.63072
G1 X52.100 Y103.700 E11.75117
G1 X52.100 Y96.300 E12.12257
G1 X54.500 Y96.300 E12.24301
G1 X54.500 Y84.800 E12.82015
G1 X97.500 Y84.800 E14.97814
G1 X97.500 Y82.400 E15.09859
G1 X104.900 Y82.400 E15.46999
G1 X104.900 Y84.740 E15.58742
G1 X105.245 Y84.455 F7800.000
G1 F1800
G1 X148.245 Y84.455 E17.74542
G1 X148.245 Y94.845 E18.26686
G1 X143.845 Y94.845 E18.48768
G1 X143.845 Y105.155 E19.00508
G1 X148.245 Y105.155 E19.22590
G1 X148.245 Y115.545 E19.74735
G1 X105.245 Y115.545 E21.90534
G1 X105.245 Y117.945 E22.02579
G1 X97.155 Y117.945 E22.43180
G1 X97.155 Y115.545 E22.55225
G1 X54.155 Y115.545 E24.71024
G1 X54.155 Y104.045 E25.28738
G1 X51.755 Y104.045 E25.40783
G1 X51.755 Y95.955 E25.81384
G1 X54.155 Y95.955 E25.93429
G1 X54.155 Y84.455 E26.51143
G1 X97.155 Y84.455 E28.66942
G1 X97.155 Y82.055 E28.78987
G1 X105.245 Y82.055 E29.19588
G1 X105.245 Y84.395 E29.31332
G1 X105.590 Y84.110 F7800.000
G1 F1800
G1 X148.590 Y84.110 E31.47131
G1 X148.590 Y95.190 E32.02737
G1 X144.190 Y95.190 E32.24819
G1 X144.190 Y104.810 E32.73098
G1 X148.590 Y104.810 E32.95179
G1 X148.590 Y115.890 E33.50785
G1 X105.590 Y115.890 E35.66585
G1 X105.590 Y118.290 E35.78629
G1 X96.810 Y118.290 E36.22693
G1 X96.810 Y115.890 E36.34737
G1 X53.810 Y115.890 E38.50537
G1 X53.810 Y104.390 E39.08251
G1 X51.410 Y104.390 E39.20295
G1 X51.410 Y95.610 E39.64358
G1 X53.810 Y95.610 E39.76403
G1 X53.810 Y84.110 E40.34117
G1 X96.810 Y84.110 E42.49916
G1 X96.810 Y81.710 E42.61961
G1 X105.590 Y81.710 E43.06024
G1 X105.590 Y84.050 E43.17768
G1 X105.758 Y84.473 F7800.000
G1 X104.797 Y84.566
G1 F1800
G1 X102.889 Y82.658 E43.31312
G1 X103.377 Y82.658 E43.33762
G1 X104.642 Y83.923 E43.42740
G1 X104.642 Y83.435 E43.45190
G1 X103.865 Y82.658 E43.50703
G1 X104.353 Y82.658 E43.53153
G1 X104.797 Y83.102 E43.56303
G1 X105.134 Y84.903 F7800.000
G1 F1800
G1 X135.172 Y114.942 E45.69592
G1 X135.660 Y114.942 E45.72042
G1 X105.777 Y85.058 E47.84229
G1 X106.265 Y85.058 E47.86679
G1 X136.148 Y114.942 E49.98866
G1 X136.636 Y114.942 E50.01316
G1 X106.753 Y85.058 E52.13503
G1 X107.241 Y85.058 E52.15953
G1 X137.124 Y114.942 E54.28141
G1 X137.612 Y114.942 E54.30591
G1 X107.729 Y85.058 E56.42778
G1 X108.217 Y85.058 E56.45228
G1 X138.100 Y114.942 E58.57415
G1 X138.588 Y114.942 E58.59865
G1 X108.705 Y85.058 E60.72052
G1 X109.193 Y85.058 E60.74502
G1 X139.076 Y114.942 E62.86690
G1 X139.564 Y114.942 E62.89140
G1 X109.681 Y85.058 E65.01327
G1 X110.169 Y85.058 E65.03777
G1 X140.052 Y114.942 E67.15964
G1 X140.540 Y114.942 E67.18414
G1 X110.657 Y85.058 E69.30601
G1 X111.145 Y85.058 E69.33051
G1 X141.028 Y114.942 E71.45238
G1 X141.516 Y114.942 E71.47688
G1 X111.633 Y85.058 E73.59876
G1 X112.121 Y85.058 E73.62326
G1 X142.004 Y114.942 E75.74513
G1 X142.492 Y114.942 E75.76963
G1 X112.609 Y85.058 E77.89150
G1 X113.097 Y85.058 E77.91600
G1 X142.980 Y114.942 E80.03787
G1 X143.468 Y114.942 E80.06237
G1 X113.585 Y85.058 E82.18425
G1 X114.073 Y85.058 E82.20875
G1 X143.956 Y114.942 E84.33062
G1 X144.444 Y114.942 E84.35512
G1 X114.561 Y85.058 E86.47699
G1 X115.049 Y85.058 E86.50149
G1 X144.932 Y114.942 E88.62336
G1 X145.420 Y114.942 E88.64786
G1 X115.537 Y85.058 E90.76973
G1 X116.025 Y85.058 E90.79424
G1 X145.908 Y114.942 E92.91611
G1 X146.396 Y114.942 E92.94061
G1 X116.513 Y85.058 E95.06248
G1 X117.000 Y85.058 E95.08698
G1 X146.884 Y114.942 E97.20885
G1 X147.372 Y114.942 E97.23335
G1 X117.488 Y85.058 E99.35522
G1 X117.976 Y85.058 E99.37972
G1 X147.642 Y114.724 E101.48612
G1 X147.642 Y114.236 E101.51062
G1 X118.464 Y85.058 E103.58236
G1 X118.952 Y85.058 E103.60686
G1 X147.642 Y113.748 E105.64396
G1 X147.642 Y113.260 E105.66846
G1 X119.440 Y85.058 E107.67091
G1 X119.928 Y85.058 E107.69541
G1 X147.642 Y112.772 E109.66321
G1 X147.642 Y112.284 E109.68771
G1 X120.416 Y85.058 E111.62086
G1 X120.904 Y85.058 E111.64536
G1 X147.642 Y111.796 E113.54387
G1 X147.642 Y111.308 E113.56837
G1 X121.392 Y85.058 E115.43222
G1 X121.880 Y85.058 E115.45672
G1 X147.797 Y110.975 E117.29695
G1 E115.29695 F2400.00000
G92 E0
G1 X147.305 Y105.603 F7800.000
G1 E2.00000 F2400.00000
G1 F1800
G1 X147.642 Y105.940 E2.02393
G1 X147.642 Y106.428 E2.04843
G1 X146.972 Y105.758 E2.09598
G1 X146.484 Y105.758 E2.12048
G1 X147.642 Y106.916 E2.20268
G1 X147.642 Y107.404 E2.22718
G1 X145.996 Y105.758 E2.34404
G1 X145.508 Y105.758 E2.36854
G1 X147.642 Y107.892 E2.52004
G1 X147.642 Y108.380 E2.54454
G1 X145.020 Y105.758 E2.73068
G1 X144.532 Y105.758 E2.75518
G1 X147.642 Y108.868 E2.97598
G1 X147.642 Y109.356 E3.00048
G1 X144.044 Y105.758 E3.25593
G1 X143.556 Y105.758 E3.28043
G1 X147.642 Y109.844 E3.57052
G1 X147.642 Y110.332 E3.59502
G1 X122.368 Y85.058 E5.38958
G1 X122.856 Y85.058 E5.41408
G1 X143.242 Y105.444 E6.86156
G1 X143.242 Y104.956 E6.88606
G1 X123.344 Y85.058 E8.29890
G1 X123.832 Y85.058 E8.32340
G1 X143.242 Y104.468 E9.70159
G1 X143.242 Y103.980 E9.72609
G1 X124.320 Y85.058 E11.06963
G1 X124.808 Y85.058 E11.09413
G1 X143.242 Y103.492 E12.40302
G1 X143.242 Y103.004 E12.42752
G1 X125.296 Y85.058 E13.70176
G1 X125.784 Y85.058 E13.72626
G1 X143.242 Y102.516 E14.96586
G1 X143.242 Y102.028 E14.99036
G1 X126.272 Y85.058 E16.19531
G1 X126.760 Y85.058 E16.21981
G1 X143.242 Y101.540 E17.39010
G1 X143.242 Y101.052 E17.41460
G1 X127.248 Y85.058 E18.55025
G1 X127.736 Y85.058 E18.57475
G1 X143.242 Y100.564 E19.67575
G1 X143.242 Y100.076 E19.70025
G1 X128.224 Y85.058 E20.76661
G1 X128.712 Y85.058 E20.79111
G1 X143.242 Y99.588 E21.82281
G1 X143.242 Y99.100 E21.84731
G1 X129.200 Y85.058 E22.84437
G1 X129.688 Y85.058 E22.86887
G1 X143.242 Y98.612 E23.83127
G1 X143.242 Y98.124 E23.85577
G1 X130.176 Y85.058 E24.78353
G1 X130.664 Y85.058 E24.80803
G1 X143.242 Y97.636 E25.70114
G1 X143.242 Y97.148 E25.72564
G1 X131.152 Y85.058 E26.58411
G1 X131.639 Y85.058 E26.60861
G1 X143.242 Y96.661 E27.43242
G1 X143.242 Y96.173 E27.45692
G1 X132.127 Y85.058 E28.24609
G1 X132.615 Y85.058 E28.27059
G1 X143.242 Y95.685 E29.02510
G1 X143.242 Y95.197 E29.04960
G1 X133.103 Y85.058 E29.76947
G1 X133.591 Y85.058 E29.79397
G1 X143.242 Y94.709 E30.47919
G1 X143.242 Y94.242 E30.50264
G1 X143.262 Y94.242 E30.50369
G1 X134.079 Y85.058 E31.15575
G1 X134.567 Y85.058 E31.18025
G1 X143.750 Y94.242 E31.83230
G1 X144.238 Y94.242 E31.85680
G1 X135.055 Y85.058 E32.50886
G1 X135.543 Y85.058 E32.53336
G1 X144.726 Y94.242 E33.18541
G1 X145.214 Y94.242 E33.20991
G1 X136.031 Y85.058 E33.86197
G1 X136.519 Y85.058 E33.88647
G1 X145.702 Y94.242 E34.53853
G1 X146.190 Y94.242 E34.56303
G1 X137.007 Y85.058 E35.21508
G1 X137.495 Y85.058 E35.23958
G1 X146.678 Y94.242 E35.89164
G1 X147.166 Y94.242 E35.91614
G1 X137.983 Y85.058 E36.56819
G1 X138.471 Y85.058 E36.59269
G1 X147.642 Y94.229 E37.24385
G1 X147.642 Y93.741 E37.26835
G1 X138.959 Y85.058 E37.88487
G1 X139.447 Y85.058 E37.90937
G1 X147.642 Y93.253 E38.49123
G1 X147.642 Y92.765 E38.51573
G1 X139.935 Y85.058 E39.06294
G1 X140.423 Y85.058 E39.08744
G1 X147.642 Y92.277 E39.60001
G1 X147.642 Y91.789 E39.62451
G1 X140.911 Y85.058 E40.10243
G1 X141.399 Y85.058 E40.12693
G1 X147.642 Y91.301 E40.57020
G1 X147.642 Y90.813 E40.59470
G1 X141.887 Y85.058 E41.00332
G1 X142.375 Y85.058 E41.02782
G1 X147.642 Y90.325 E41.40179
G1 X147.642 Y89.837 E41.42629
G1 X142.863 Y85.058 E41.76562
G1 X143.351 Y85.058 E41.79012
G1 X147.642 Y89.349 E42.09479
G1 X147.642 Y88.861 E42.11930
G1 X143.839 Y85.058 E42.38932
G1 X144.327 Y85.058 E42.41382
G1 X147.642 Y88.373 E42.64920
G1 X147.642 Y87.885 E42.67370
G1 X144.815 Y85.058 E42.87443
G1 X145.303 Y85.058 E42.89893
G1 X147.642 Y87.397 E43.06502
G1 X147.642 Y86.909 E43.08952
G1 X145.791 Y85.058 E43.22095
G1 X146.279 Y85.058 E43.24545
G1 X147.642 Y86.421 E43.34224
G1 X147.642 Y85.934 E43.36674
G1 X146.766 Y85.058 E43.42887
G1 X147.254 Y85.058 E43.45337
G1 X147.797 Y85.601 E43.49188
G1 E41.49188 F2400.00000
G92 E0
G1 X134.840 Y115.097 F7800.000
G1 E2.00000 F2400.00000
G1 F1800
G1 X102.401 Y82.658 E4.30331
G1 X101.913 Y82.658 E4.32781
G1 X134.196 Y114.942 E6.62009
G1 X133.709 Y114.942 E6.64459
G1 X101.425 Y82.658 E8.93688
G1 X100.937 Y82.658 E8.96138
G1 X133.221 Y114.942 E11.25366
G1 X132.733 Y114.942 E11.27816
G1 X100.449 Y82.658 E13.57045
G1 X99.961 Y82.658 E13.59495
G1 X132.245 Y114.942 E15.88723
G1 X131.757 Y114.942 E15.91173
G1 X99.473 Y82.658 E18.20402
G1 X98.986 Y82.658 E18.22852
G1 X131.269 Y114.942 E20.52081
G1 X130.781 Y114.942 E20.54531
G1 X98.498 Y82.658 E22.83759
G1 X98.010 Y82.658 E22.86209
G1 X130.293 Y114.942 E25.15438
G1 X129.805 Y114.942 E25.17888
G1 X97.758 Y82.895 E27.45435
G1 X97.758 Y83.383 E27.47885
G1 X129.317 Y114.942 E29.71967
G1 X128.829 Y114.942 E29.74417
G1 X97.758 Y83.871 E31.95034
G1 X97.758 Y84.359 E31.97484
G1 X128.341 Y114.942 E34.14637
G1 X127.853 Y114.942 E34.17087
G1 X97.758 Y84.847 E36.30775
G1 X97.758 Y85.058 E36.31836
G1 X97.482 Y85.058 E36.33225
G1 X127.365 Y114.942 E38.45412
G1 X126.877 Y114.942 E38.47862
G1 X96.994 Y85.058 E40.60049
G1 X96.506 Y85.058 E40.62499
G1 X126.389 Y114.942 E42.74686
G1 X125.901 Y114.942 E42.77136
G1 X96.018 Y85.058 E44.89324
G1 X95.530 Y85.058 E44.91774
G1 X125.413 Y114.942 E47.03961
G1 X124.925 Y114.942 E47.06411
G1 X95.042 Y85.058 E49.18598
G1 X94.554 Y85.058 E49.21048
G1 X124.437 Y114.942 E51.33235
G1 X123.949 Y114.942 E51.35685
G1 X94.066 Y85.058 E53.47873
G1 X93.578 Y85.058 E53.50323
G1 X123.461 Y114.942 E55.62510
G1 X122.973 Y114.942 E55.64960
G1 X93.090 Y85.058 E57.77147
G1 X92.602 Y85.058 E57.79597
G1 X122.485 Y114.942 E59.91784
G1 X121.997 Y114.942 E59.94234
G1 X92.114 Y85.058 E62.06421
G1 X91.626 Y85.058 E62.08871
G1 X121.509 Y114.942 E64.21059
G1 X121.021 Y114.942 E64.23509
G1 X91.138 Y85.058 E66.35696
G1 X90.650 Y85.058 E66.38146
G1 X120.533 Y114.942 E68.50333
G1 X120.045 Y114.942 E68.52783
G1 X90.162 Y85.058 E70.64970
G1 X89.674 Y85.058 E70.67420
G1 X119.557 Y114.942 E72.79608
G1 X119.069 Y114.942 E72.82058
G1 X89.186 Y85.058 E74.94245
G1 X88.698 Y85.058 E74.96695
G1 X118.582 Y114.942 E77.08882
G1 X118.094 Y114.942 E77.11332
G1 X88.210 Y85.058 E79.23519
G1 X87.722 Y85.058 E79.25969
G1 X117.606 Y114.942 E81.38157
G1 X117.118 Y114.942 E81.40607
G1 X87.234 Y85.058 E83.52794
G1 X86.746 Y85.058 E83.55244
G1 X116.630 Y114.942 E85.67431
G1 X116.142 Y114.942 E85.69881
G1 X86.259 Y85.058 E87.82068
G1 X85.771 Y85.058 E87.84518
G1 X115.654 Y114.942 E89.96705
G1 X115.166 Y114.942 E89.99155
G1 X85.283 Y85.058 E92.11343
G1 X84.795 Y85.058 E92.13793
G1 X114.678 Y114.942 E94.25980
G1 X114.190 Y114.942 E94.28430
G1 X84.307 Y85.058 E96.40617
G1 X83.819 Y85.058 E96.43067
G1 X113.702 Y114.942 E98.55254
G1 X113.214 Y114.942 E98.57704
G1 X83.331 Y85.058 E100.69892
G1 X82.843 Y85.058 E100.72342
G1 X112.726 Y114.942 E102.84529
G1 X112.238 Y114.942 E102.86979
G1 X82.355 Y85.058 E104.99166
G1 X81.867 Y85.058 E105.01616
G1 X111.750 Y114.942 E107.13803
G1 X111.262 Y114.942 E107.16253
G1 X81.379 Y85.058 E109.28440
G1 X80.891 Y85.058 E109.30891
G1 X110.774 Y114.942 E111.43078
G1 X110.286 Y114.942 E111.45528
G1 X80.403 Y85.058 E113.57715
G1 X79.915 Y85.058 E113.60165
G1 X109.798 Y114.942 E115.72352
G1 X109.310 Y114.942 E115.74802
G1 X79.427 Y85.058 E117.86989
G1 X78.939 Y85.058 E117.89439
G1 X108.822 Y114.942 E120.01627
G1 X108.334 Y114.942 E120.04077
G1 X78.451 Y85.058 E122.16264
G1 X77.963 Y85.058 E122.18714
G1 X107.846 Y114.942 E124.30901
G1 X107.358 Y114.942 E124.33351
G1 X77.475 Y85.058 E126.45538
G1 X76.987 Y85.058 E126.47988
G1 X106.870 Y114.942 E128.60176
G1 X106.382 Y114.942 E128.62626
G1 X76.499 Y85.058 E130.74813
G1 X76.011 Y85.058 E130.77263
G1 X105.894 Y114.942 E132.89450
G1 X105.406 Y114.942 E132.91900
G1 X75.523 Y85.058 E135.04087
G1 X75.035 Y85.058 E135.06537
G1 X104.918 Y114.942 E137.18724
G1 X104.642 Y114.942 E137.20115
G1 X104.642 Y115.153 E137.21174
G1 X74.547 Y85.058 E139.34861
G1 X74.059 Y85.058 E139.37311
G1 X104.642 Y115.641 E141.54462
G1 X104.642 Y116.129 E141.56912
G1 X73.571 Y85.058 E143.77528
G1 X73.083 Y85.058 E143.79978
G1 X104.642 Y116.617 E146.04058
G1 X104.642 Y117.105 E146.06508
G1 X72.595 Y85.058 E148.34054
G1 X72.107 Y85.058 E148.36504
G1 X104.391 Y117.342 E150.65733
G1 X103.903 Y117.342 E150.68183
G1 X71.620 Y85.058 E152.97411
G1 X71.132 Y85.058 E152.99861
G1 X103.415 Y117.342 E155.29090
G1 X102.927 Y117.342 E155.31540
G1 X70.644 Y85.058 E157.60768
G1 X70.156 Y85.058 E157.63218
G1 X102.439 Y117.342 E159.92447
G1 X101.951 Y117.342 E159.94897
G1 X69.668 Y85.058 E162.24125
G1 X69.180 Y85.058 E162.26575
G1 X101.463 Y117.342 E164.55804
G1 X100.975 Y117.342 E164.58254
G1 X68.692 Y85.058 E166.87483
G1 X68.204 Y85.058 E166.89933
G1 X100.487 Y117.342 E169.19161
G1 X99.999 Y117.342 E169.21611
G1 X67.716 Y85.058 E171.50840
G1 X67.228 Y85.058 E171.53290
G1 X97.111 Y114.942 E173.65477
G1 X96.623 Y114.942 E173.67927
G1 X66.740 Y85.058 E175.80114
G1 X66.252 Y85.058 E175.82564
G1 X96.135 Y114.942 E177.94751
G1 X95.647 Y114.942 E177.97201
G1 X65.764 Y85.058 E180.09389
G1 X65.276 Y85.058 E180.11839
G1 X95.159 Y114.942 E182.24026
G1 X94.671 Y114.942 E182.26476
G1 X64.788 Y85.058 E184.38663
G1 X64.300 Y85.058 E184.41113
G1 X94.183 Y114.942 E186.53300
G1 X93.695 Y114.942 E186.55750
G1 X63.812 Y85.058 E188.67938
G1 X63.324 Y85.058 E188.70388
G1 X93.207 Y114.942 E190.82575
G1 X92.719 Y114.942 E190.85025
G1 X62.836 Y85.058 E192.97212
G1 X62.348 Y85.058 E192.99662
G1 X92.231 Y114.942 E195.11849
G1 X91.743 Y114.942 E195.14299
G1 X61.860 Y85.058 E197.26486
G1 X61.372 Y85.058 E197.28936
G1 X91.255 Y114.942 E199.41124
G1 X90.767 Y114.942 E199.43574
G1 X60.884 Y85.058 E201.55761
G1 X60.396 Y85.058 E201.58211
G1 X90.279 Y114.942 E203.70398
G1 X89.791 Y114.942 E203.72848
G1 X59.908 Y85.058 E205.85035
G1 X59.420 Y85.058 E205.87485
G1 X89.303 Y114.942 E207.99673
