; generated by PrusaSlicer 2.1.1+linux64 on 2020-01-15 at 16:14:30 UTC

; 

; external perimeters extrusion width = 0.45mm
; perimeters extrusion width = 0.45mm
; infill extrusion width = 0.45mm
; solid infill extrusion width = 0.45mm
; top infill extrusion width = 0.40mm
; first layer extrusion width = 0.42mm

M107
M190 S60 ; set bed temperature and wait for it to be reached
M104 S215 ; set temperature
G28 ; home all axes
G1 Z5 F5000 ; lift nozzle
M109 S215 ; set temperature and wait for it to be reached
G21 ; set units to millimeters
G90 ; use absolute coordinates
M82 ; use absolute distances for extrusion
G92 E0
; Filament gcode
G1 Z0.350 F7800.000
G1 E-2.00000 F2400.00000
G92 E0
G1 X48.735 Y75.459 F7800.000
G1 E2.00000 F2400.00000
G1 F1800
G1 X49.972 Y75.328 E2.06243
G1 X150.006 Y75.328 E7.08275
G1 X151.171 Y75.440 E7.14150
G1 X152.294 Y75.770 E7.20025
G1 X153.335 Y76.306 E7.25899
G1 X154.256 Y77.029 E7.31774
G1 X155.023 Y77.913 E7.37649
G1 X155.610 Y78.926 E7.43523
G1 X155.995 Y80.031 E7.49398
G1 X156.165 Y81.189 E7.55272
G1 X156.149 Y119.033 E9.45196
G1 X156.023 Y119.852 E9.49352
G1 X155.785 Y120.651 E9.53538
G1 X155.445 Y121.406 E9.57693
G1 X155.007 Y122.109 E9.61848
G1 X154.479 Y122.747 E9.66004
G1 X153.866 Y123.312 E9.70190
G1 X153.182 Y123.789 E9.74376
G1 X152.445 Y124.167 E9.78531
G1 X151.265 Y124.541 E9.84743
G1 X150.028 Y124.672 E9.90986
G1 X49.816 Y124.670 E14.93912
G1 X48.949 Y124.582 E14.98282
G1 X48.098 Y124.372 E15.02683
G1 X47.291 Y124.046 E15.07054
G1 X46.532 Y123.606 E15.11455
G1 X45.843 Y123.063 E15.15856
G1 X45.242 Y122.433 E15.20227
G1 X44.733 Y121.719 E15.24628
G1 X44.333 Y120.945 E15.28998
G1 X43.962 Y119.783 E15.35118
G1 X43.828 Y118.578 E15.41207
G1 X43.843 Y81.058 E17.29501
G1 X43.960 Y80.226 E17.33718
G1 X44.189 Y79.418 E17.37934
G1 X44.529 Y78.643 E17.42182
G1 X44.968 Y77.926 E17.46399
G1 X45.500 Y77.276 E17.50616
G1 X46.115 Y76.704 E17.54832
G1 X46.802 Y76.220 E17.59049
G1 X47.555 Y75.833 E17.63297
G1 X48.677 Y75.477 E17.69207
G1 E15.69207 F2400.00000
G92 E0
G1 X94.445 Y117.945 F7800.000
G1 E2.00000 F2400.00000
G1 F1800
G1 X50.555 Y117.945 E4.20267
G1 X50.555 Y105.555 E4.82449
G1 X51.445 Y105.555 E4.86916
G1 X51.445 Y117.055 E5.44630
G1 X94.445 Y117.055 E7.60429
G1 X94.445 Y117.885 E7.64596
G1 E5.64596 F2400.00000
G92 E0
G1 X51.790 Y116.710 F7800.000
G1 E2.00000 F2400.00000
G1 F1800
G1 X94.790 Y116.710 E4.15799
G1 X94.790 Y118.290 E4.23729
G1 X50.210 Y118.290 E6.47458
G1 X50.210 Y105.210 E7.13101
G1 X51.790 Y105.210 E7.21030
G1 X51.790 Y116.650 E7.78443
G1 X51.808 Y117.110 F7800.000
G1 X51.000 Y117.227
G1 F1800
G1 X51.000 Y105.727 E8.69699
G1 E6.69699 F2400.00000
G92 E0
G1 X51.000 Y117.227 F7800.000
G1 E2.00000 F2400.00000
G1 F1800
G1 X51.047 Y117.453 E2.01831
G1 X51.273 Y117.500 E2.03661
G1 X94.273 Y117.500 E5.44881
G1 E3.44881 F2400.00000
G92 E0
G1 X51.445 Y94.445 F7800.000
G1 E2.00000 F2400.00000
G1 F1800
G1 X50.555 Y94.445 E2.04468
G1 X50.555 Y82.055 E2.66649
G1 X94.445 Y82.055 E4.86916
G1 X94.445 Y82.945 E4.91384
G1 X51.445 Y82.945 E7.07183
G1 X51.445 Y94.385 E7.64596
G1 E5.64596 F2400.00000
G92 E0
G1 X51.790 Y83.290 F7800.000
G1 E2.00000 F2400.00000
G1 F1800
G1 X51.790 Y94.790 E2.57714
G1 X50.210 Y94.790 E2.65643
G1 X50.210 Y81.710 E3.31286
G1 X94.790 Y81.710 E5.55015
G1 X94.790 Y83.290 E5.62945
G1 X51.850 Y83.290 E7.78443
G1 X51.390 Y83.295 F7800.000
G1 X51.000 Y82.773
G1 F1800
G1 X51.000 Y94.273 E8.69699
G1 E6.69699 F2400.00000
G92 E0
G1 X51.000 Y82.773 F7800.000
G1 E2.00000 F2400.00000
G1 F1800
G1 X51.047 Y82.547 E2.01831
G1 X51.273 Y82.500 E2.03661
G1 X94.273 Y82.500 E5.44881
G1 E3.44881 F2400.00000
G92 E0
G1 X105.555 Y82.945 F7800.000
G1 E2.00000 F2400.00000
G1 F1800
G1 X105.555 Y82.055 E2.04468
G1 X149.445 Y82.055 E4.24735
G1 X149.445 Y94.445 E4.86916
G1 X148.555 Y94.445 E4.91384
G1 X148.555 Y82.945 E5.49098
G1 X105.615 Y82.945 E7.64596
G1 E5.64596 F2400.00000
G92 E0
G1 X148.210 Y83.290 F7800.000
G1 E2.00000 F2400.00000
G1 F1800
G1 X105.210 Y83.290 E4.15799
G1 X105.210 Y81.710 E4.23729
G1 X149.790 Y81.710 E6.47458
G1 X149.790 Y94.790 E7.13101
G1 X148.210 Y94.790 E7.21030
G1 X148.210 Y83.350 E7.78443
G1 X148.192 Y82.890 F7800.000
G1 X148.727 Y82.500
G1 F1800
G1 X105.727 Y82.500 E11.19663
G1 E9.19663 F2400.00000
G92 E0
G1 X148.727 Y82.500 F7800.000
G1 E2.00000 F2400.00000
G1 F1800
G1 X148.953 Y82.547 E2.01831
G1 X149.000 Y82.773 E2.03661
G1 X149.000 Y94.273 E2.94918
G1 E0.94918 F2400.00000
G92 E0
G1 X148.555 Y105.555 F7800.000
G1 E2.00000 F2400.00000
G1 F1800
G1 X149.445 Y105.555 E2.04468
G1 X149.445 Y117.945 E2.66649
G1 X105.555 Y117.945 E4.86916
G1 X105.555 Y117.055 E4.91384
G1 X148.555 Y117.055 E7.07183
G1 X148.555 Y105.615 E7.64596
G1 E5.64596 F2400.00000
G92 E0
G1 X148.210 Y116.710 F7800.000
G1 E2.00000 F2400.00000
G1 F1800
G1 X148.210 Y105.210 E2.57714
G1 X149.790 Y105.210 E2.65643
G1 X149.790 Y118.290 E3.31286
G1 X105.210 Y118.290 E5.55015
G1 X105.210 Y116.710 E5.62945
G1 X148.150 Y116.710 E7.78443
G1 X148.610 Y116.705 F7800.000
G1 X148.727 Y117.500
G1 F1800
G1 X105.727 Y117.500 E11.19663
G1 E9.19663 F2400.00000
G92 E0
G1 X148.727 Y117.500 F7800.000
G1 E2.00000 F2400.00000
G1 F1800
G1 X148.953 Y117.453 E2.01831
G1 X149.000 Y117.227 E2.03661
G1 X149.000 Y105.727 E2.94918
G1 Z0.650 F7800.000
G1 E0.94918 F2400.00000
G92 E0
G1 X94.389 Y117.111 F7800.000
G1 E2.00000 F2400.00000
G1 F3600
G1 X94.389 Y117.889 E2.03746
G1 X50.611 Y117.889 E4.14306
G1 X50.611 Y105.611 E4.73363
G1 X51.389 Y105.611 E4.77109
G1 X51.389 Y117.111 E5.32420
G1 X94.329 Y117.111 E7.38947
G1 X51.775 Y116.725 F7800.000
G1 F1800
G1 X94.775 Y116.725 E9.45762
G1 X94.775 Y118.275 E9.53217
G1 X50.225 Y118.275 E11.67487
G1 X50.225 Y105.225 E12.30253
G1 X51.775 Y105.225 E12.37708
G1 X51.775 Y116.665 E12.92731
G1 X51.793 Y117.125 F7800.000
G1 X51.000 Y117.303
G1 F1200
G1 X51.000 Y105.803 E13.49121
G1 X51.000 Y117.303 F7800.000
G1 F1200
G1 X51.034 Y117.466 E13.49937
G1 X51.197 Y117.500 E13.50752
G1 X94.197 Y117.500 E15.61604
G1 E13.61604 F2400.00000
G92 E0
G1 X51.389 Y94.389 F7800.000
G1 E2.00000 F2400.00000
G1 F3600
G1 X50.611 Y94.389 E2.03746
G1 X50.611 Y82.111 E2.62802
G1 X94.389 Y82.111 E4.73363
G1 X94.389 Y82.889 E4.77109
G1 X51.389 Y82.889 E6.83924
G1 X51.389 Y94.329 E7.38947
G1 X51.775 Y83.275 F7800.000
G1 F1800
G1 X51.775 Y94.775 E7.94258
G1 X50.225 Y94.775 E8.01713
G1 X50.225 Y81.725 E8.64479
G1 X94.775 Y81.725 E10.78749
G1 X94.775 Y83.275 E10.86204
G1 X51.835 Y83.275 E12.92731
G1 X51.375 Y83.280 F7800.000
G1 X51.000 Y82.697
G1 F1200
G1 X51.000 Y94.197 E13.49121
G1 X51.000 Y82.697 F7800.000
G1 F1200
G1 X51.034 Y82.534 E13.49937
G1 X51.197 Y82.500 E13.50752
G1 X94.197 Y82.500 E15.61604
G1 E13.61604 F2400.00000
G92 E0
G1 X105.611 Y82.889 F7800.000
G1 E2.00000 F2400.00000
G1 F3600
G1 X105.611 Y82.111 E2.03746
G1 X149.389 Y82.111 E4.14306
G1 X149.389 Y94.389 E4.73363
G1 X148.611 Y94.389 E4.77109
G1 X148.611 Y82.889 E5.32420
G1 X105.671 Y82.889 E7.38947
G1 X148.225 Y83.275 F7800.000
G1 F1800
G1 X105.225 Y83.275 E9.45762
G1 X105.225 Y81.725 E9.53217
G1 X149.775 Y81.725 E11.67487
G1 X149.775 Y94.775 E12.30253
G1 X148.225 Y94.775 E12.37708
G1 X148.225 Y83.335 E12.92731
G1 X148.207 Y82.875 F7800.000
G1 X148.803 Y82.500
G1 F1200
G1 X105.803 Y82.500 E15.03583
G1 X148.803 Y82.500 F7800.000
G1 F1200
G1 X148.966 Y82.534 E15.04398
G1 X149.000 Y82.697 E15.05213
G1 X149.000 Y94.197 E15.61604
G1 E13.61604 F2400.00000
G92 E0
G1 X148.611 Y105.611 F7800.000
G1 E2.00000 F2400.00000
G1 F3600
G1 X149.389 Y105.611 E2.03746
G1 X149.389 Y117.889 E2.62802
G1 X105.611 Y117.889 E4.73363
G1 X105.611 Y117.111 E4.77109
G1 X148.611 Y117.111 E6.83924
G1 X148.611 Y105.671 E7.38947
G1 X148.225 Y116.725 F7800.000
G1 F1800
G1 X148.225 Y105.225 E7.94258
G1 X149.775 Y105.225 E8.01713
G1 X149.775 Y118.275 E8.64479
G1 X105.225 Y118.275 E10.78749
G1 X105.225 Y116.725 E10.86204
G1 X148.165 Y116.725 E12.92731
G1 X148.625 Y116.720 F7800.000
G1 X148.803 Y117.500
G1 F1200
G1 X105.803 Y117.500 E15.03583
G1 X148.803 Y117.500 F7800.000
G1 F1200
G1 X148.966 Y117.466 E15.04398
G1 X149.000 Y117.303 E15.05213
G1 X149.000 Y105.803 E15.61604
G1 Z0.950 F7800.000
G1 E13.61604 F2400.00000
G92 E0
G1 X94.389 Y117.111 F7800.000
G1 E2.00000 F2400.00000
G1 F3600
G1 X94.389 Y117.889 E2.03746
G1 X50.611 Y117.889 E4.14306
G1 X50.611 Y105.611 E4.73363
G1 X51.389 Y105.611 E4.77109
G1 X51.389 Y117.111 E5.32420
G1 X94.329 Y117.111 E7.38947
G1 X51.775 Y116.725 F7800.000
G1 F1800
G1 X94.775 Y116.725 E9.45762
G1 X94.775 Y118.275 E9.53217
G1 X50.225 Y118.275 E11.67487
G1 X50.225 Y105.225 E12.30253
G1 X51.775 Y105.225 E12.37708
G1 X51.775 Y116.665 E12.92731
G1 X51.793 Y117.125 F7800.000
G1 X51.000 Y117.303
G1 F1200
G1 X51.000 Y105.803 E13.49121
G1 X51.000 Y117.303 F7800.000
G1 F1200
G1 X51.034 Y117.466 E13.49937
G1 X51.197 Y117.500 E13.50752
G1 X94.197 Y117.500 E15.61604
G1 E13.61604 F2400.00000
G92 E0
G1 X51.389 Y94.389 F7800.000
G1 E2.00000 F2400.00000
G1 F3600
G1 X50.611 Y94.389 E2.03746
G1 X50.611 Y82.111 E2.62802
G1 X94.389 Y82.111 E4.73363
G1 X94.389 Y82.889 E4.77109
G1 X51.389 Y82.889 E6.83924
G1 X51.389 Y94.329 E7.38947
G1 X51.775 Y83.275 F7800.000
G1 F1800
G1 X51.775 Y94.775 E7.94258
G1 X50.225 Y94.775 E8.01713
G1 X50.225 Y81.725 E8.64479
G1 X94.775 Y81.725 E10.78749
G1 X94.775 Y83.275 E10.86204
G1 X51.835 Y83.275 E12.92731
G1 X51.375 Y83.280 F7800.000
G1 X51.000 Y82.697
G1 F1200
G1 X51.000 Y94.197 E13.49121
G1 X51.000 Y82.697 F7800.000
G1 F1200
G1 X51.034 Y82.534 E13.49937
G1 X51.197 Y82.500 E13.50752
G1 X94.197 Y82.500 E15.61604
G1 E13.61604 F2400.00000
G92 E0
G1 X105.611 Y82.889 F7800.000
G1 E2.00000 F2400.00000
G1 F3600
G1 X105.611 Y82.111 E2.03746
G1 X149.389 Y82.111 E4.14306
G1 X149.389 Y94.389 E4.73363
G1 X148.611 Y94.389 E4.77109
G1 X148.611 Y82.889 E5.32420
G1 X105.671 Y82.889 E7.38947
G1 X148.225 Y83.275 F7800.000
G1 F1800
G1 X105.225 Y83.275 E9.45762
G1 X105.225 Y81.725 E9.53217
G1 X149.775 Y81.725 E11.67487
G1 X149.775 Y94.775 E12.30253
G1 X148.225 Y94.775 E12.37708
G1 X148.225 Y83.335 E12.92731
G1 X148.207 Y82.875 F7800.000
G1 X148.803 Y82.500
G1 F1200
G1 X105.803 Y82.500 E15.03583
G1 X148.803 Y82.500 F7800.000
G1 F1200
G1 X148.966 Y82.534 E15.04398
G1 X149.000 Y82.697 E15.05213
G1 X149.000 Y94.197 E15.61604
G1 E13.61604 F2400.00000
G92 E0
G1 X148.611 Y105.611 F7800.000
G1 E2.00000 F2400.00000
G1 F3600
G1 X149.389 Y105.611 E2.03746
G1 X149.389 Y117.889 E2.62802
G1 X105.611 Y117.889 E4.73363
G1 X105.611 Y117.111 E4.77109
G1 X148.611 Y117.111 E6.83924
G1 X148.611 Y105.671 E7.38947
G1 X148.225 Y116.725 F7800.000
G1 F1800
G1 X148.225 Y105.225 E7.94258
G1 X149.775 Y105.225 E8.01713
G1 X149.775 Y118.275 E8.64479
G1 X105.225 Y118.275 E10.78749
G1 X105.225 Y116.725 E10.86204
G1 X148.165 Y116.725 E12.92731
G1 X148.625 Y116.720 F7800.000
G1 X148.803 Y117.500
G1 F1200
G1 X105.803 Y117.500 E15.03583
G1 X148.803 Y117.500 F7800.000
G1 F1200
G1 X148.966 Y117.466 E15.04398
G1 X149.000 Y117.303 E15.05213
G1 X149.000 Y105.803 E15.61604
M106 S158.1
G1 Z1.250 F7800.000
G1 E13.61604 F2400.00000
G92 E0
G1 X94.389 Y117.111 F7800.000
G1 E2.00000 F2400.00000
G1 F3600
G1 X94.389 Y117.889 E2.03746
G1 X50.611 Y117.889 E4.14306
G1 X50.611 Y105.611 E4.73363
G1 X51.389 Y105.611 E4.77109
G1 X51.389 Y117.111 E5.32420
G1 X94.329 Y117.111 E7.38947
G1 X51.775 Y116.725 F7800.000
G1 F1800
G1 X94.775 Y116.725 E9.45762
G1 X94.775 Y118.275 E9.53217
G1 X50.225 Y118.275 E11.67487
G1 X50.225 Y105.225 E12.30253
G1 X51.775 Y105.225 E12.37708
G1 X51.775 Y116.665 E12.92731
G1 X51.793 Y117.125 F7800.000
G1 X51.000 Y117.303
G1 F1200
G1 X51.000 Y105.803 E13.49121
G1 X51.000 Y117.303 F7800.000
G1 F1200
G1 X51.034 Y117.466 E13.49937
G1 X51.197 Y117.500 E13.50752
G1 X94.197 Y117.500 E15.61604
G1 E13.61604 F2400.00000
G92 E0
G1 X51.389 Y94.389 F7800.000
G1 E2.00000 F2400.00000
G1 F3600
G1 X50.611 Y94.389 E2.03746
G1 X50.611 Y82.111 E2.62802
G1 X94.389 Y82.111 E4.73363
G1 X94.389 Y82.889 E4.77109
G1 X51.389 Y82.889 E6.83924
G1 X51.389 Y94.329 E7.38947
G1 X51.775 Y83.275 F7800.000
G1 F1800
G1 X51.775 Y94.775 E7.94258
G1 X50.225 Y94.775 E8.01713
G1 X50.225 Y81.725 E8.64479
G1 X94.775 Y81.725 E10.78749
G1 X94.775 Y83.275 E10.86204
G1 X51.835 Y83.275 E12.92731
G1 X51.375 Y83.280 F7800.000
G1 X51.000 Y82.697
G1 F1200
G1 X51.000 Y94.197 E13.49121
G1 X51.000 Y82.697 F7800.000
G1 F1200
G1 X51.034 Y82.534 E13.49937
G1 X51.197 Y82.500 E13.50752
G1 X94.197 Y82.500 E15.61604
G1 E13.61604 F2400.00000
G92 E0
G1 X105.611 Y82.889 F7800.000
G1 E2.00000 F2400.00000
G1 F3600
G1 X105.611 Y82.111 E2.03746
G1 X149.389 Y82.111 E4.14306
G1 X149.389 Y94.389 E4.73363
G1 X148.611 Y94.389 E4.77109
G1 X148.611 Y82.889 E5.32420
G1 X105.671 Y82.889 E7.38947
G1 X148.225 Y83.275 F7800.000
G1 F1800
G1 X105.225 Y83.275 E9.45762
G1 X105.225 Y81.725 E9.53217
G1 X149.775 Y81.725 E11.67487
G1 X149.775 Y94.775 E12.30253
G1 X148.225 Y94.775 E12.37708
G1 X148.225 Y83.335 E12.92731
G1 X148.207 Y82.875 F7800.000
G1 X148.803 Y82.500
G1 F1200
G1 X105.803 Y82.500 E15.03583
G1 X148.803 Y82.500 F7800.000
G1 F1200
G1 X148.966 Y82.534 E15.04398
G1 X149.000 Y82.697 E15.05213
G1 X149.000 Y94.197 E15.61604
G1 E13.61604 F2400.00000
G92 E0
G1 X148.611 Y105.611 F7800.000
G1 E2.00000 F2400.00000
G1 F3600
G1 X149.389 Y105.611 E2.03746
G1 X149.389 Y117.889 E2.62802
G1 X105.611 Y117.889 E4.73363
G1 X105.611 Y117.111 E4.77109
G1 X148.611 Y117.111 E6.83924
G1 X148.611 Y105.671 E7.38947
G1 X148.225 Y116.725 F7800.000
G1 F1800
G1 X148.225 Y105.225 E7.94258
G1 X149.775 Y105.225 E8.01713
G1 X149.775 Y118.275 E8.64479
G1 X105.225 Y118.275 E10.78749
G1 X105.225 Y116.725 E10.86204
G1 X148.165 Y116.725 E12.92731
G1 X148.625 Y116.720 F7800.000
G1 X148.803 Y117.500
G1 F1200
G1 X105.803 Y117.500 E15.03583
G1 X148.803 Y117.500 F7800.000
G1 F1200
G1 X148.966 Y117.466 E15.04398
G1 X149.000 Y117.303 E15.05213
G1 X149.000 Y105.803 E15.61604
G1 Z1.550 F7800.000
G1 E13.61604 F2400.00000
G92 E0
G1 X94.389 Y117.111 F7800.000
G1 E2.00000 F2400.00000
G1 F3600
G1 X94.389 Y117.889 E2.03746
G1 X50.611 Y117.889 E4.14306
G1 X50.611 Y105.611 E4.73363
G1 X51.389 Y105.611 E4.77109
G1 X51.389 Y117.111 E5.32420
G1 X94.329 Y117.111 E7.38947
G1 X51.775 Y116.725 F7800.000
G1 F1800
G1 X94.775 Y116.725 E9.45762
G1 X94.775 Y118.275 E9.53217
G1 X50.225 Y118.275 E11.67487
G1 X50.225 Y105.225 E12.30253
G1 X51.775 Y105.225 E12.37708
G1 X51.775 Y116.665 E12.92731
G1 X51.793 Y117.125 F7800.000
G1 X51.000 Y117.303
G1 F1200
G1 X51.000 Y105.803 E13.49121
G1 X51.000 Y117.303 F7800.000
G1 F1200
G1 X51.034 Y117.466 E13.49937
G1 X51.197 Y117.500 E13.50752
G1 X94.197 Y117.500 E15.61604
G1 E13.61604 F2400.00000
G92 E0
G1 X51.389 Y94.389 F7800.000
G1 E2.00000 F2400.00000
G1 F3600
G1 X50.611 Y94.389 E2.03746
G1 X50.611 Y82.111 E2.62802
G1 X94.389 Y82.111 E4.73363
G1 X94.389 Y82.889 E4.77109
G1 X51.389 Y82.889 E6.83924
G1 X51.389 Y94.329 E7.38947
G1 X51.775 Y83.275 F7800.000
G1 F1800
G1 X51.775 Y94.775 E7.94258
G1 X50.225 Y94.775 E8.01713
G1 X50.225 Y81.725 E8.64479
G1 X94.775 Y81.725 E10.78749
G1 X94.775 Y83.275 E10.86204
G1 X51.835 Y83.275 E12.92731
G1 X51.375 Y83.280 F7800.000
G1 X51.000 Y82.697
G1 F1200
G1 X51.000 Y94.197 E13.49121
G1 X51.000 Y82.697 F7800.000
G1 F1200
G1 X51.034 Y82.534 E13.49937
G1 X51.197 Y82.500 E13.50752
G1 X94.197 Y82.500 E15.61604
G1 E13.61604 F2400.00000
G92 E0
G1 X105.611 Y82.889 F7800.000
G1 E2.00000 F2400.00000
G1 F3600
G1 X105.611 Y82.111 E2.03746
G1 X149.389 Y82.111 E4.14306
G1 X149.389 Y94.389 E4.73363
G1 X148.611 Y94.389 E4.77109
G1 X148.611 Y82.889 E5.32420
G1 X105.671 Y82.889 E7.38947
G1 X148.225 Y83.275 F7800.000
G1 F1800
G1 X105.225 Y83.275 E9.45762
G1 X105.225 Y81.725 E9.53217
G1 X149.775 Y81.725 E11.67487
G1 X149.775 Y94.775 E12.30253
G1 X148.225 Y94.775 E12.37708
G1 X148.225 Y83.335 E12.92731
G1 X148.207 Y82.875 F7800.000
G1 X148.803 Y82.500
G1 F1200
G1 X105.803 Y82.500 E15.03583
G1 X148.803 Y82.500 F7800.000
G1 F1200
G1 X148.966 Y82.534 E15.04398
G1 X149.000 Y82.697 E15.05213
G1 X149.000 Y94.197 E15.61604
G1 E13.61604 F2400.00000
G92 E0
G1 X148.611 Y105.611 F7800.000
G1 E2.00000 F2400.00000
G1 F3600
G1 X149.389 Y105.611 E2.03746
G1 X149.389 Y117.889 E2.62802
