; generated by PrusaSlicer 2.1.1+linux64 on 2020-01-15 at 15:41:41 UTC

; 

; external perimeters extrusion width = 0.45mm
; perimeters extrusion width = 0.45mm
; infill extrusion width = 0.45mm
; solid infill extrusion width = 0.45mm
; top infill extrusion width = 0.40mm
; first layer extrusion width = 0.42mm

M107
M190 S60 ; set bed temperature and wait for it to be reached
M104 S215 ; set temperature
G28 ; home all axes
G1 Z5 F5000 ; lift nozzle
M109 S215 ; set temperature and wait for it to be reached
G21 ; set units to millimeters
G90 ; use absolute coordinates
M82 ; use absolute distances for extrusion
G92 E0
; Filament gcode
G1 Z0.350 F7800.000
G1 E-2.00000 F2400.00000
G92 E0
G1 X53.585 Y86.492 F7800.000
G1 E2.00000 F2400.00000
G1 F1800
G1 X54.990 Y86.328 E2.07100
G1 X145.006 Y86.328 E6.58855
G1 X146.171 Y86.440 E6.64729
G1 X147.294 Y86.770 E6.70604
G1 X148.330 Y87.303 E6.76448
G1 X149.251 Y88.025 E6.82322
G1 X150.020 Y88.908 E6.88197
G1 X150.607 Y89.920 E6.94072
G1 X150.994 Y91.025 E6.99946
G1 X151.164 Y92.183 E7.05821
G1 X151.172 Y107.549 E7.82936
G1 X151.025 Y108.840 E7.89455
G1 X150.779 Y109.668 E7.93794
G1 X150.419 Y110.455 E7.98134
G1 X149.953 Y111.183 E8.02474
G1 X149.390 Y111.839 E8.06814
G1 X148.745 Y112.406 E8.11123
G1 X148.023 Y112.882 E8.15462
G1 X147.241 Y113.251 E8.19802
G1 X146.415 Y113.508 E8.24142
G1 X145.010 Y113.672 E8.31242
G1 X54.712 Y113.666 E12.84413
G1 X53.720 Y113.538 E12.89428
G1 X52.768 Y113.255 E12.94413
G1 X51.874 Y112.822 E12.99398
G1 X51.056 Y112.248 E13.04413
G1 X50.346 Y111.554 E13.09398
G1 X49.752 Y110.750 E13.14414
G1 X49.299 Y109.866 E13.19398
G1 X48.992 Y108.915 E13.24414
G1 X48.828 Y107.516 E13.31483
G1 X48.828 Y92.451 E14.07090
G1 X48.953 Y91.262 E14.13087
G1 X49.189 Y90.418 E14.17488
G1 X49.543 Y89.615 E14.21890
G1 X50.007 Y88.871 E14.26291
G1 X50.572 Y88.200 E14.30692
G1 X51.226 Y87.616 E14.35093
G1 X51.956 Y87.130 E14.39494
G1 X52.748 Y86.753 E14.43895
G1 X53.528 Y86.510 E14.47996
G1 E12.47996 F2400.00000
G92 E0
G1 X144.100 Y106.600 F7800.000
G1 E2.00000 F2400.00000
G1 F1800
G1 X55.900 Y106.600 E6.42642
G1 X55.900 Y93.400 E7.08890
G1 X144.100 Y93.400 E11.51532
G1 X144.100 Y106.540 E12.17478
G1 X144.445 Y106.945 F7800.000
G1 F1800
G1 X55.555 Y106.945 E16.63582
G1 X55.555 Y93.055 E17.33291
G1 X144.445 Y93.055 E21.79395
G1 X144.445 Y106.885 E22.48803
G1 X144.790 Y107.290 F7800.000
G1 F1800
G1 X55.210 Y107.290 E26.98369
G1 X55.210 Y92.710 E27.71540
G1 X144.790 Y92.710 E32.21105
G1 X144.790 Y107.230 E32.93975
G1 X144.391 Y107.268 F7800.000
G1 E30.93975 F2400.00000
G92 E0
G1 X143.997 Y94.201 F7800.000
G1 E2.00000 F2400.00000
G1 F1800
G1 X143.454 Y93.658 E2.03855
G1 X142.966 Y93.658 E2.06307
G1 X143.842 Y94.534 E2.12528
G1 X143.842 Y95.022 E2.14980
G1 X142.478 Y93.658 E2.24669
G1 X141.990 Y93.658 E2.27121
G1 X143.842 Y95.510 E2.40278
G1 X143.842 Y95.999 E2.42730
G1 X141.501 Y93.658 E2.59355
G1 X141.013 Y93.658 E2.61807
G1 X143.842 Y96.487 E2.81900
G1 X143.842 Y96.975 E2.84352
G1 X140.525 Y93.658 E3.07913
G1 X140.037 Y93.658 E3.10366
G1 X143.842 Y97.463 E3.37395
G1 X143.842 Y97.951 E3.39847
G1 X139.549 Y93.658 E3.70344
G1 X139.060 Y93.658 E3.72796
G1 X143.842 Y98.440 E4.06761
G1 X143.842 Y98.928 E4.09214
G1 X138.572 Y93.658 E4.46647
G1 X138.084 Y93.658 E4.49099
G1 X143.842 Y99.416 E4.90000
G1 X143.842 Y99.904 E4.92452
G1 X137.596 Y93.658 E5.36822
G1 X137.108 Y93.658 E5.39274
G1 X143.842 Y100.392 E5.87111
G1 X143.842 Y100.881 E5.89563
G1 X136.619 Y93.658 E6.40869
G1 X136.131 Y93.658 E6.43321
G1 X143.842 Y101.369 E6.98095
G1 X143.842 Y101.857 E7.00547
G1 X135.643 Y93.658 E7.58788
G1 X135.155 Y93.658 E7.61241
G1 X143.842 Y102.345 E8.22950
G1 X143.842 Y102.833 E8.25402
G1 X134.667 Y93.658 E8.90580
G1 X134.178 Y93.658 E8.93032
G1 X143.842 Y103.322 E9.61678
G1 X143.842 Y103.810 E9.64130
G1 X133.690 Y93.658 E10.36244
G1 X133.202 Y93.658 E10.38696
G1 X143.842 Y104.298 E11.14278
G1 X143.842 Y104.786 E11.16730
G1 X132.714 Y93.658 E11.95780
G1 X132.226 Y93.658 E11.98232
G1 X143.842 Y105.274 E12.80750
G1 X143.842 Y105.763 E12.83202
G1 X131.737 Y93.658 E13.69188
G1 X131.249 Y93.658 E13.71641
G1 X143.842 Y106.251 E14.61095
G1 X143.842 Y106.342 E14.61551
G1 X143.444 Y106.342 E14.63547
G1 X130.761 Y93.658 E15.53646
G1 X130.273 Y93.658 E15.56099
G1 X142.956 Y106.342 E16.46198
G1 X142.468 Y106.342 E16.48650
G1 X129.785 Y93.658 E17.38749
G1 X129.296 Y93.658 E17.41202
G1 X141.980 Y106.342 E18.31301
G1 X141.491 Y106.342 E18.33753
G1 X128.808 Y93.658 E19.23853
G1 X128.320 Y93.658 E19.26305
G1 X141.003 Y106.342 E20.16404
G1 X140.515 Y106.342 E20.18856
G1 X127.832 Y93.658 E21.08956
G1 X127.344 Y93.658 E21.11408
G1 X140.027 Y106.342 E22.01507
G1 X139.539 Y106.342 E22.03960
G1 X126.856 Y93.658 E22.94059
G1 X126.367 Y93.658 E22.96511
G1 X139.050 Y106.342 E23.86610
G1 X138.562 Y106.342 E23.89063
G1 X125.879 Y93.658 E24.79162
G1 X125.391 Y93.658 E24.81614
G1 X138.074 Y106.342 E25.71714
G1 X137.586 Y106.342 E25.74166
G1 X124.903 Y93.658 E26.64265
G1 X124.415 Y93.658 E26.66718
G1 X137.098 Y106.342 E27.56817
G1 X136.610 Y106.342 E27.59269
G1 X123.926 Y93.658 E28.49368
G1 X123.438 Y93.658 E28.51821
G1 X136.121 Y106.342 E29.41920
G1 X135.633 Y106.342 E29.44372
G1 X122.950 Y93.658 E30.34472
G1 X122.462 Y93.658 E30.36924
G1 X135.145 Y106.342 E31.27023
G1 X134.657 Y106.342 E31.29475
G1 X121.974 Y93.658 E32.19575
G1 X121.485 Y93.658 E32.22027
G1 X134.169 Y106.342 E33.12126
G1 X133.680 Y106.342 E33.14579
G1 X120.997 Y93.658 E34.04678
G1 X120.509 Y93.658 E34.07130
G1 X133.192 Y106.342 E34.97230
G1 X132.704 Y106.342 E34.99682
G1 X120.021 Y93.658 E35.89781
G1 X119.533 Y93.658 E35.92233
G1 X132.216 Y106.342 E36.82333
G1 X131.728 Y106.342 E36.84785
G1 X119.044 Y93.658 E37.74884
G1 X118.556 Y93.658 E37.77337
G1 X131.239 Y106.342 E38.67436
G1 X130.751 Y106.342 E38.69888
G1 X118.068 Y93.658 E39.59987
G1 X117.580 Y93.658 E39.62440
G1 X130.263 Y106.342 E40.52539
G1 X129.775 Y106.342 E40.54991
G1 X117.092 Y93.658 E41.45091
G1 X116.603 Y93.658 E41.47543
G1 X129.287 Y106.342 E42.37642
G1 X128.798 Y106.342 E42.40094
G1 X116.115 Y93.658 E43.30194
G1 X115.627 Y93.658 E43.32646
G1 X128.310 Y106.342 E44.22745
G1 X127.822 Y106.342 E44.25198
G1 X115.139 Y93.658 E45.15297
G1 X114.651 Y93.658 E45.17749
G1 X127.334 Y106.342 E46.07849
G1 X126.846 Y106.342 E46.10301
G1 X114.162 Y93.658 E47.00400
G1 X113.674 Y93.658 E47.02852
G1 X126.357 Y106.342 E47.92952
G1 X125.869 Y106.342 E47.95404
G1 X113.186 Y93.658 E48.85503
G1 X112.698 Y93.658 E48.87956
G1 X125.381 Y106.342 E49.78055
G1 X124.893 Y106.342 E49.80507
G1 X112.210 Y93.658 E50.70606
G1 X111.722 Y93.658 E50.73059
G1 X124.405 Y106.342 E51.63158
G1 X123.916 Y106.342 E51.65610
G1 X111.233 Y93.658 E52.55710
G1 X110.745 Y93.658 E52.58162
G1 X123.428 Y106.342 E53.48261
G1 X122.940 Y106.342 E53.50713
G1 X110.257 Y93.658 E54.40813
G1 X109.769 Y93.658 E54.43265
G1 X122.452 Y106.342 E55.33364
G1 X121.964 Y106.342 E55.35817
G1 X109.281 Y93.658 E56.25916
G1 X108.792 Y93.658 E56.28368
G1 X121.476 Y106.342 E57.18468
G1 X120.987 Y106.342 E57.20920
G1 X108.304 Y93.658 E58.11019
G1 X107.816 Y93.658 E58.13471
G1 X120.499 Y106.342 E59.03571
G1 X120.011 Y106.342 E59.06023
G1 X107.328 Y93.658 E59.96122
G1 X106.840 Y93.658 E59.98575
G1 X119.523 Y106.342 E60.88674
G1 X119.035 Y106.342 E60.91126
G1 X106.351 Y93.658 E61.81225
G1 X105.863 Y93.658 E61.83678
G1 X118.546 Y106.342 E62.73777
G1 X118.058 Y106.342 E62.76229
G1 X105.375 Y93.658 E63.66329
G1 X104.887 Y93.658 E63.68781
G1 X117.570 Y106.342 E64.58880
G1 X117.082 Y106.342 E64.61332
G1 X104.399 Y93.658 E65.51432
G1 X103.910 Y93.658 E65.53884
G1 X116.594 Y106.342 E66.43983
G1 X116.105 Y106.342 E66.46436
G1 X103.422 Y93.658 E67.36535
G1 X102.934 Y93.658 E67.38987
G1 X115.617 Y106.342 E68.29087
G1 X115.129 Y106.342 E68.31539
G1 X102.446 Y93.658 E69.21638
G1 X101.958 Y93.658 E69.24090
G1 X114.641 Y106.342 E70.14190
G1 X114.153 Y106.342 E70.16642
G1 X101.469 Y93.658 E71.06741
G1 X100.981 Y93.658 E71.09194
G1 X113.664 Y106.342 E71.99293
G1 X113.176 Y106.342 E72.01745
G1 X100.493 Y93.658 E72.91844
G1 X100.005 Y93.658 E72.94297
G1 X112.688 Y106.342 E73.84396
G1 X112.200 Y106.342 E73.86848
G1 X99.517 Y93.658 E74.76948
G1 X99.028 Y93.658 E74.79400
G1 X111.712 Y106.342 E75.69499
G1 X111.223 Y106.342 E75.71951
G1 X98.540 Y93.658 E76.62051
G1 X98.052 Y93.658 E76.64503
G1 X110.735 Y106.342 E77.54602
G1 X110.247 Y106.342 E77.57055
G1 X97.564 Y93.658 E78.47154
G1 X97.076 Y93.658 E78.49606
G1 X109.759 Y106.342 E79.39706
G1 X109.271 Y106.342 E79.42158
G1 X96.588 Y93.658 E80.32257
G1 X96.099 Y93.658 E80.34709
G1 X108.782 Y106.342 E81.24809
G1 X108.294 Y106.342 E81.27261
G1 X95.611 Y93.658 E82.17360
G1 X95.123 Y93.658 E82.19813
G1 X107.806 Y106.342 E83.09912
G1 X107.318 Y106.342 E83.12364
G1 X94.635 Y93.658 E84.02463
G1 X94.147 Y93.658 E84.04916
G1 X106.830 Y106.342 E84.95015
G1 X106.342 Y106.342 E84.97467
G1 X93.658 Y93.658 E85.87567
G1 X93.170 Y93.658 E85.90019
G1 X105.853 Y106.342 E86.80118
G1 X105.365 Y106.342 E86.82570
G1 X92.682 Y93.658 E87.72670
G1 X92.194 Y93.658 E87.75122
G1 X104.877 Y106.342 E88.65221
G1 X104.389 Y106.342 E88.67674
G1 X91.706 Y93.658 E89.57773
G1 X91.217 Y93.658 E89.60225
G1 X103.901 Y106.342 E90.50324
G1 X103.412 Y106.342 E90.52777
G1 X90.729 Y93.658 E91.42876
G1 X90.241 Y93.658 E91.45328
G1 X102.924 Y106.342 E92.35428
G1 X102.436 Y106.342 E92.37880
G1 X89.753 Y93.658 E93.27979
G1 X89.265 Y93.658 E93.30431
G1 X101.948 Y106.342 E94.20531
G1 X101.460 Y106.342 E94.22983
G1 X88.776 Y93.658 E95.13082
G1 X88.288 Y93.658 E95.15535
G1 X100.971 Y106.342 E96.05634
G1 X100.483 Y106.342 E96.08086
G1 X87.800 Y93.658 E96.98186
G1 X87.312 Y93.658 E97.00638
G1 X99.995 Y106.342 E97.90737
G1 X99.507 Y106.342 E97.93189
G1 X86.824 Y93.658 E98.83289
G1 X86.335 Y93.658 E98.85741
G1 X99.019 Y106.342 E99.75840
G1 X98.530 Y106.342 E99.78293
G1 X85.847 Y93.658 E100.68392
G1 X85.359 Y93.658 E100.70844
G1 X98.042 Y106.342 E101.60943
G1 X97.554 Y106.342 E101.63396
G1 X84.871 Y93.658 E102.53495
G1 X84.383 Y93.658 E102.55947
G1 X97.066 Y106.342 E103.46047
G1 X96.578 Y106.342 E103.48499
G1 X83.894 Y93.658 E104.38598
G1 X83.406 Y93.658 E104.41050
G1 X96.089 Y106.342 E105.31150
G1 X95.601 Y106.342 E105.33602
G1 X82.918 Y93.658 E106.23701
G1 X82.430 Y93.658 E106.26154
G1 X95.113 Y106.342 E107.16253
G1 X94.625 Y106.342 E107.18705
G1 X81.942 Y93.658 E108.08804
G1 X81.454 Y93.658 E108.11257
G1 X94.137 Y106.342 E109.01356
G1 X93.648 Y106.342 E109.03808
G1 X80.965 Y93.658 E109.93908
G1 X80.477 Y93.658 E109.96360
G1 X93.160 Y106.342 E110.86459
G1 X92.672 Y106.342 E110.88912
G1 X79.989 Y93.658 E111.79011
G1 X79.501 Y93.658 E111.81463
G1 X92.184 Y106.342 E112.71562
G1 X91.696 Y106.342 E112.74015
G1 X79.013 Y93.658 E113.64114
G1 X78.524 Y93.658 E113.66566
G1 X91.208 Y106.342 E114.56666
G1 X90.719 Y106.342 E114.59118
G1 X78.036 Y93.658 E115.49217
G1 X77.548 Y93.658 E115.51669
G1 X90.231 Y106.342 E116.41769
G1 X89.743 Y106.342 E116.44221
G1 X77.060 Y93.658 E117.34320
G1 X76.572 Y93.658 E117.36773
G1 X89.255 Y106.342 E118.26872
G1 X88.767 Y106.342 E118.29324
G1 X76.083 Y93.658 E119.19423
G1 X75.595 Y93.658 E119.21876
G1 X88.278 Y106.342 E120.11975
G1 X87.790 Y106.342 E120.14427
G1 X75.107 Y93.658 E121.04527
G1 X74.619 Y93.658 E121.06979
G1 X87.302 Y106.342 E121.97078
G1 X86.814 Y106.342 E121.99531
G1 X74.131 Y93.658 E122.89630
G1 X73.642 Y93.658 E122.92082
G1 X86.326 Y106.342 E123.82181
G1 X85.837 Y106.342 E123.84634
G1 X73.154 Y93.658 E124.74733
G1 X72.666 Y93.658 E124.77185
G1 X85.349 Y106.342 E125.67285
G1 X84.861 Y106.342 E125.69737
G1 X72.178 Y93.658 E126.59836
G1 X71.690 Y93.658 E126.62288
G1 X84.373 Y106.342 E127.52388
G1 X83.885 Y106.342 E127.54840
G1 X71.201 Y93.658 E128.44939
G1 X70.713 Y93.658 E128.47392
G1 X83.396 Y106.342 E129.37491
G1 X82.908 Y106.342 E129.39943
G1 X70.225 Y93.658 E130.30043
G1 X69.737 Y93.658 E130.32495
G1 X82.420 Y106.342 E131.22594
G1 X81.932 Y106.342 E131.25046
G1 X69.249 Y93.658 E132.15146
G1 X68.760 Y93.658 E132.17598
G1 X81.444 Y106.342 E133.07697
G1 X80.955 Y106.342 E133.10150
G1 X68.272 Y93.658 E134.00249
G1 X67.784 Y93.658 E134.02701
G1 X80.467 Y106.342 E134.92800
G1 X79.979 Y106.342 E134.95253
G1 X67.296 Y93.658 E135.85352
G1 X66.808 Y93.658 E135.87804
G1 X79.491 Y106.342 E136.77904
G1 X79.003 Y106.342 E136.80356
G1 X66.320 Y93.658 E137.70455
G1 X65.831 Y93.658 E137.72907
G1 X78.514 Y106.342 E138.63007
G1 X78.026 Y106.342 E138.65459
G1 X65.343 Y93.658 E139.55558
G1 X64.855 Y93.658 E139.58011
G1 X77.538 Y106.342 E140.48110
G1 X77.050 Y106.342 E140.50562
G1 X64.367 Y93.658 E141.40662
G1 X63.879 Y93.658 E141.43114
G1 X76.562 Y106.342 E142.33213
G1 X76.074 Y106.342 E142.35665
G1 X63.390 Y93.658 E143.25765
G1 X62.902 Y93.658 E143.28217
G1 X75.585 Y106.342 E144.18316
G1 X75.097 Y106.342 E144.20769
G1 X62.414 Y93.658 E145.10868
G1 X61.926 Y93.658 E145.13320
G1 X74.609 Y106.342 E146.03419
G1 X74.121 Y106.342 E146.05872
G1 X61.438 Y93.658 E146.95971
G1 X60.949 Y93.658 E146.98423
G1 X73.633 Y106.342 E147.88523
G1 X73.144 Y106.342 E147.90975
G1 X60.461 Y93.658 E148.81074
G1 X59.973 Y93.658 E148.83526
G1 X72.656 Y106.342 E149.73626
G1 X72.168 Y106.342 E149.76078
G1 X59.485 Y93.658 E150.66177
G1 X58.997 Y93.658 E150.68630
G1 X71.680 Y106.342 E151.58729
G1 X71.192 Y106.342 E151.61181
G1 X58.508 Y93.658 E152.51281
G1 X58.020 Y93.658 E152.53733
G1 X70.703 Y106.342 E153.43832
G1 X70.215 Y106.342 E153.46284
G1 X57.532 Y93.658 E154.36384
G1 X57.044 Y93.658 E154.38836
G1 X69.727 Y106.342 E155.28935
G1 X69.239 Y106.342 E155.31388
G1 X56.556 Y93.658 E156.21487
G1 X56.158 Y93.658 E156.23482
G1 X56.158 Y93.749 E156.23939
G1 X68.751 Y106.342 E157.13392
G1 X68.262 Y106.342 E157.15844
G1 X56.158 Y94.238 E158.01829
G1 X56.158 Y94.726 E158.04282
G1 X67.774 Y106.342 E158.86799
G1 X67.286 Y106.342 E158.89251
G1 X56.158 Y95.214 E159.68300
G1 X56.158 Y95.702 E159.70752
G1 X66.798 Y106.342 E160.46333
G1 X66.310 Y106.342 E160.48785
G1 X56.158 Y96.190 E161.20898
G1 X56.158 Y96.679 E161.23350
G1 X65.821 Y106.342 E161.91995
G1 X65.333 Y106.342 E161.94447
G1 X56.158 Y97.167 E162.59624
G1 X56.158 Y97.655 E162.62076
G1 X64.845 Y106.342 E163.23785
G1 X64.357 Y106.342 E163.26237
G1 X56.158 Y98.143 E163.84478
G1 X56.158 Y98.631 E163.86930
G1 X63.869 Y106.342 E164.41702
G1 X63.380 Y106.342 E164.44155
G1 X56.158 Y99.120 E164.95459
G1 X56.158 Y99.608 E164.97911
G1 X62.892 Y106.342 E165.45748
G1 X62.404 Y106.342 E165.48200
G1 X56.158 Y100.096 E165.92568
G1 X56.158 Y100.584 E165.95021
G1 X61.916 Y106.342 E166.35921
G1 X61.428 Y106.342 E166.38373
G1 X56.158 Y101.072 E166.75805
G1 X56.158 Y101.560 E166.78258
G1 X60.940 Y106.342 E167.12222
G1 X60.451 Y106.342 E167.14674
G1 X56.158 Y102.049 E167.45170
G1 X56.158 Y102.537 E167.47622
G1 X59.963 Y106.342 E167.74650
G1 X59.475 Y106.342 E167.77103
G1 X56.158 Y103.025 E168.00663
G1 X56.158 Y103.513 E168.03115
G1 X58.987 Y106.342 E168.23207
G1 X58.499 Y106.342 E168.25659
G1 X56.158 Y104.001 E168.42283
G1 X56.158 Y104.490 E168.44735
G1 X58.010 Y106.342 E168.57891
G1 X57.522 Y106.342 E168.60343
G1 X56.158 Y104.978 E168.70031
G1 X56.158 Y105.466 E168.72483
G1 X57.034 Y106.342 E168.78703
G1 X56.546 Y106.342 E168.81155
G1 X56.003 Y105.799 E168.85010
G1 Z0.650 F7800.000
G1 X144.004 Y106.504
G1 F3600
G1 X55.996 Y106.504 E173.08296
G1 X55.996 Y93.496 E173.70857
G1 X144.004 Y93.496 E177.94143
G1 X144.004 Y106.444 E178.56417
G1 X144.389 Y106.889 F7800.000
G1 F3600
G1 X55.611 Y106.889 E182.83412
G1 X55.611 Y93.111 E183.49683
G1 X144.389 Y93.111 E187.76679
G1 X144.389 Y106.829 E188.42661
G1 X144.775 Y107.275 F7800.000
G1 F1800
G1 X55.225 Y107.275 E192.73366
G1 X55.225 Y92.725 E193.43347
G1 X144.775 Y92.725 E197.74052
G1 X144.775 Y107.215 E198.43744
G1 X144.376 Y107.254 F7800.000
G1 X143.106 Y106.388
G1 F1200
G1 X143.715 Y105.780 E198.47893
G1 X143.715 Y105.233 E198.50531
G1 X142.733 Y106.215 E198.57227
G1 X142.186 Y106.215 E198.59865
G1 X143.715 Y104.686 E198.70292
G1 X143.715 Y104.139 E198.72930
G1 X141.639 Y106.215 E198.87088
G1 X141.092 Y106.215 E198.89725
G1 X143.715 Y103.592 E199.07613
G1 X143.715 Y103.045 E199.10251
