; generated by PrusaSlicer 2.1.1+linux64 on 2020-01-09 at 17:46:02 UTC

; 

; external perimeters extrusion width = 0.45mm
; perimeters extrusion width = 0.45mm
; infill extrusion width = 0.45mm
; solid infill extrusion width = 0.45mm
; top infill extrusion width = 0.40mm
; first layer extrusion width = 0.42mm

M107
M104 S200 ; set temperature
G28 ; home all axes
G1 Z5 F5000 ; lift nozzle
M109 S200 ; set temperature and wait for it to be reached
G21 ; set units to millimeters
G90 ; use absolute coordinates
M82 ; use absolute distances for extrusion
G92 E0
; Filament gcode
G1 Z0.350 F7800.000
G1 E-2.00000 F2400.00000
G92 E0
G1 X35.995 Y64.014 F7800.000
G1 E2.00000 F2400.00000
G1 F1800
G1 X37.465 Y63.828 E2.07436
G1 X162.506 Y63.828 E8.34965
G1 X163.677 Y63.941 E8.40870
G1 X164.811 Y64.277 E8.46806
G1 X165.856 Y64.819 E8.52712
G1 X166.778 Y65.550 E8.58617
G1 X167.544 Y66.443 E8.64522
G1 X168.128 Y67.465 E8.70427
G1 X168.507 Y68.579 E8.76333
G1 X168.667 Y69.751 E8.82269
G1 X168.665 Y130.307 E11.86175
G1 X168.574 Y131.099 E11.90177
G1 X168.381 Y131.873 E11.94179
G1 X168.091 Y132.615 E11.98180
G1 X167.707 Y133.314 E12.02182
G1 X167.236 Y133.958 E12.06184
G1 X166.687 Y134.535 E12.10185
G1 X166.067 Y135.037 E12.14187
G1 X165.388 Y135.455 E12.18189
G1 X164.005 Y135.986 E12.25625
G1 X162.535 Y136.172 E12.33062
G1 X37.383 Y136.171 E18.61144
G1 X36.565 Y136.101 E18.65269
G1 X35.762 Y135.923 E18.69394
G1 X34.991 Y135.639 E18.73518
G1 X34.264 Y135.256 E18.77643
G1 X33.599 Y134.783 E18.81737
G1 X32.998 Y134.223 E18.85861
G1 X32.477 Y133.587 E18.89986
G1 X32.045 Y132.888 E18.94111
G1 X31.518 Y131.523 E19.01455
G1 X31.328 Y130.071 E19.08800
G1 X31.332 Y69.767 E22.11444
G1 X31.415 Y68.968 E22.15477
G1 X31.602 Y68.180 E22.19540
G1 X31.891 Y67.424 E22.23603
G1 X32.273 Y66.717 E22.27636
G1 X32.748 Y66.061 E22.31699
G1 X33.300 Y65.477 E22.35731
G1 X33.923 Y64.970 E22.39764
G1 X34.612 Y64.545 E22.43827
G1 X35.939 Y64.035 E22.50962
G1 E20.50962 F2400.00000
G92 E0
G1 X72.974 Y120.908 F7800.000
G1 E2.00000 F2400.00000
G1 F1800
G1 X72.351 Y120.826 E2.03154
G1 X71.771 Y120.585 E2.06308
G1 X71.272 Y120.202 E2.09462
G1 X70.889 Y119.704 E2.12617
G1 X70.649 Y119.123 E2.15771
G1 X70.567 Y118.500 E2.18925
G1 X70.649 Y117.877 E2.22079
G1 X70.889 Y117.296 E2.25233
G1 X71.272 Y116.798 E2.28387
G1 X71.771 Y116.415 E2.31542
G1 X72.351 Y116.174 E2.34696
G1 X72.963 Y116.094 E2.37790
G1 X73.595 Y116.173 E2.40989
G1 X74.178 Y116.415 E2.44157
G1 X74.677 Y116.798 E2.47311
G1 X75.059 Y117.296 E2.50465
G1 X75.300 Y117.877 E2.53619
G1 X75.382 Y118.500 E2.56773
G1 X75.300 Y119.123 E2.59927
G1 X75.059 Y119.704 E2.63082
G1 X74.677 Y120.202 E2.66236
G1 X74.178 Y120.585 E2.69390
G1 X73.597 Y120.826 E2.72544
G1 X73.034 Y120.900 E2.75397
G1 X72.974 Y120.560 F7800.000
G1 F1800
G1 X72.441 Y120.489 E2.78096
G1 X71.944 Y120.284 E2.80794
G1 X71.518 Y119.956 E2.83492
G1 X71.191 Y119.530 E2.86191
G1 X70.985 Y119.033 E2.88889
G1 X70.915 Y118.500 E2.91588
G1 X70.985 Y117.967 E2.94286
G1 X71.191 Y117.470 E2.96984
G1 X71.518 Y117.044 E2.99683
G1 X71.944 Y116.716 E3.02381
G1 X72.441 Y116.511 E3.05080
G1 X72.964 Y116.442 E3.07724
G1 X73.506 Y116.510 E3.10467
G1 X74.004 Y116.716 E3.13173
G1 X74.431 Y117.044 E3.15872
G1 X74.758 Y117.470 E3.18570
G1 X74.964 Y117.967 E3.21269
G1 X75.034 Y118.500 E3.23967
G1 X74.964 Y119.033 E3.26665
G1 X74.758 Y119.530 E3.29364
G1 X74.431 Y119.956 E3.32062
G1 X74.004 Y120.284 E3.34761
G1 X73.507 Y120.489 E3.37459
G1 X73.034 Y120.552 E3.39856
G1 X72.974 Y120.212 F7800.000
G1 F1800
G1 X72.531 Y120.153 E3.42099
G1 X72.118 Y119.982 E3.44342
G1 X71.764 Y119.710 E3.46584
G1 X71.492 Y119.356 E3.48827
G1 X71.321 Y118.943 E3.51070
G1 X71.263 Y118.500 E3.53312
G1 X71.321 Y118.057 E3.55555
G1 X71.492 Y117.644 E3.57798
G1 X71.764 Y117.290 E3.60040
G1 X72.118 Y117.018 E3.62283
G1 X72.531 Y116.847 E3.64526
G1 X72.965 Y116.789 E3.66719
G1 X73.417 Y116.846 E3.69006
G1 X73.830 Y117.018 E3.71252
G1 X74.185 Y117.290 E3.73495
G1 X74.457 Y117.644 E3.75738
G1 X74.628 Y118.057 E3.77980
G1 X74.686 Y118.500 E3.80223
G1 X74.628 Y118.943 E3.82466
G1 X74.457 Y119.356 E3.84708
G1 X74.185 Y119.710 E3.86951
G1 X73.830 Y119.982 E3.89194
G1 X73.417 Y120.153 E3.91436
G1 X73.034 Y120.204 E3.93378
G1 X72.774 Y120.558 F7800.000
G1 E1.93378 F2400.00000
G92 E0
G1 X67.575 Y84.600 F7800.000
G1 E2.00000 F2400.00000
G1 F1800
G1 X78.374 Y84.600 E2.54199
G1 X78.374 Y115.400 E4.08769
G1 X67.575 Y115.400 E4.62967
G1 X67.575 Y84.660 E6.17237
G1 X67.919 Y84.945 F7800.000
G1 F1800
G1 X78.029 Y84.945 E6.67974
G1 X78.029 Y115.055 E8.19082
G1 X67.919 Y115.055 E8.69819
G1 X67.919 Y85.005 E10.20627
G1 X68.264 Y85.290 F7800.000
G1 F1800
G1 X77.684 Y85.290 E10.67902
G1 X77.684 Y114.710 E12.15549
G1 X68.264 Y114.710 E12.62824
G1 X68.264 Y85.350 E14.10170
G1 X68.223 Y84.892 F7800.000
G1 E12.10170 F2400.00000
G92 E0
G1 X71.272 Y83.093 F7800.000
G1 E2.00000 F2400.00000
G1 F1800
G1 X70.889 Y82.595 E2.03154
G1 X70.649 Y82.014 E2.06308
G1 X70.567 Y81.391 E2.09462
G1 X70.649 Y80.768 E2.12617
G1 X70.889 Y80.187 E2.15771
G1 X71.272 Y79.689 E2.18925
G1 X71.771 Y79.306 E2.22079
G1 X72.351 Y79.065 E2.25233
G1 X72.963 Y78.985 E2.28328
G1 X73.595 Y79.064 E2.31526
G1 X74.178 Y79.306 E2.34694
G1 X74.677 Y79.689 E2.37848
G1 X75.059 Y80.187 E2.41003
G1 X75.300 Y80.768 E2.44157
G1 X75.382 Y81.391 E2.47311
G1 X75.300 Y82.014 E2.50465
G1 X75.059 Y82.595 E2.53619
G1 X74.677 Y83.093 E2.56773
G1 X74.178 Y83.476 E2.59927
G1 X73.597 Y83.717 E2.63082
G1 X72.974 Y83.799 E2.66236
G1 X72.351 Y83.717 E2.69390
G1 X71.771 Y83.476 E2.72544
G1 X71.320 Y83.130 E2.75397
G1 X71.518 Y82.847 F7800.000
G1 F1800
G1 X71.191 Y82.421 E2.78096
G1 X70.985 Y81.924 E2.80794
G1 X70.915 Y81.391 E2.83492
G1 X70.985 Y80.858 E2.86191
G1 X71.191 Y80.361 E2.88889
G1 X71.518 Y79.935 E2.91588
G1 X71.944 Y79.607 E2.94286
G1 X72.441 Y79.402 E2.96984
G1 X72.964 Y79.333 E2.99629
G1 X73.506 Y79.401 E3.02371
G1 X74.004 Y79.607 E3.05078
G1 X74.431 Y79.935 E3.07777
G1 X74.758 Y80.361 E3.10475
G1 X74.964 Y80.858 E3.13173
G1 X75.034 Y81.391 E3.15872
G1 X74.964 Y81.924 E3.18570
G1 X74.758 Y82.421 E3.21269
G1 X74.431 Y82.847 E3.23967
G1 X74.004 Y83.175 E3.26665
G1 X73.507 Y83.380 E3.29364
G1 X72.974 Y83.451 E3.32062
G1 X72.441 Y83.380 E3.34761
G1 X71.944 Y83.175 E3.37459
G1 X71.566 Y82.884 E3.39856
G1 X71.764 Y82.601 F7800.000
G1 F1800
G1 X71.492 Y82.247 E3.42099
G1 X71.321 Y81.834 E3.44342
G1 X71.263 Y81.391 E3.46584
G1 X71.321 Y80.948 E3.48827
G1 X71.492 Y80.535 E3.51070
G1 X71.764 Y80.181 E3.53312
G1 X72.118 Y79.909 E3.55555
G1 X72.531 Y79.738 E3.57798
G1 X72.965 Y79.680 E3.59991
G1 X73.417 Y79.737 E3.62278
G1 X73.830 Y79.909 E3.64524
G1 X74.185 Y80.181 E3.66767
G1 X74.457 Y80.535 E3.69010
G1 X74.628 Y80.948 E3.71252
G1 X74.686 Y81.391 E3.73495
G1 X74.628 Y81.834 E3.75738
G1 X74.457 Y82.247 E3.77980
G1 X74.185 Y82.601 E3.80223
G1 X73.830 Y82.873 E3.82466
G1 X73.417 Y83.044 E3.84708
G1 X72.974 Y83.103 E3.86951
G1 X72.531 Y83.044 E3.89194
G1 X72.118 Y82.873 E3.91436
G1 X71.811 Y82.638 E3.93378
G1 X71.378 Y82.705 F7800.000
G1 E1.93378 F2400.00000
G92 E0
G1 X38.400 Y70.900 F7800.000
G1 E2.00000 F2400.00000
G1 F1800
G1 X161.600 Y70.900 E8.18293
G1 X161.600 Y129.100 E11.10377
G1 X38.400 Y129.100 E17.28670
G1 X38.400 Y70.960 E20.20453
G1 X38.055 Y70.555 F7800.000
G1 F1800
G1 X161.945 Y70.555 E26.42207
G1 X161.945 Y129.445 E29.37753
G1 X38.055 Y129.445 E35.59508
G1 X38.055 Y70.615 E38.54752
G1 X37.710 Y70.210 F7800.000
G1 F1800
G1 X162.290 Y70.210 E44.79968
G1 X162.290 Y129.790 E47.78976
G1 X37.710 Y129.790 E54.04192
G1 X37.710 Y70.270 E57.02899
G1 X38.106 Y70.269 F7800.000
G1 E55.02899 F2400.00000
G92 E0
G1 X58.803 Y71.003 F7800.000
G1 E2.00000 F2400.00000
G1 F1800
G1 X72.141 Y84.342 E2.94720
G1 X71.653 Y84.342 E2.97171
G1 X58.470 Y71.158 E3.90789
G1 X57.982 Y71.158 E3.93239
G1 X71.165 Y84.342 E4.86858
G1 X70.677 Y84.342 E4.89308
G1 X57.494 Y71.158 E5.82926
G1 X57.006 Y71.158 E5.85377
G1 X70.189 Y84.342 E6.78995
G1 X69.701 Y84.342 E6.81445
G1 X56.518 Y71.158 E7.75064
G1 X56.030 Y71.158 E7.77514
G1 X69.213 Y84.342 E8.71132
G1 X68.725 Y84.342 E8.73583
G1 X55.542 Y71.158 E9.67201
G1 X55.054 Y71.158 E9.69652
G1 X68.237 Y84.342 E10.63270
G1 X67.749 Y84.342 E10.65720
G1 X54.566 Y71.158 E11.59338
G1 X54.078 Y71.158 E11.61789
G1 X67.316 Y84.397 E12.55797
G1 X67.316 Y84.885 E12.58248
G1 X53.590 Y71.158 E13.55722
G1 X53.102 Y71.158 E13.58173
G1 X67.316 Y85.373 E14.59113
G1 X67.316 Y85.861 E14.61563
G1 X52.614 Y71.158 E15.65968
G1 X52.126 Y71.158 E15.68419
G1 X67.316 Y86.349 E16.76290
G1 X67.316 Y86.837 E16.78741
G1 X51.638 Y71.158 E17.90077
G1 X51.150 Y71.158 E17.92528
G1 X67.316 Y87.325 E19.07330
G1 X67.316 Y87.813 E19.09781
G1 X50.662 Y71.158 E20.28048
G1 X50.174 Y71.158 E20.30499
G1 X67.316 Y88.301 E21.52232
G1 X67.316 Y88.789 E21.54683
G1 X49.686 Y71.158 E22.79882
G1 X49.198 Y71.158 E22.82332
G1 X67.316 Y89.277 E24.10997
G1 X67.316 Y89.765 E24.13448
G1 X48.710 Y71.158 E25.45578
G1 X48.221 Y71.158 E25.48028
G1 X67.316 Y90.253 E26.83624
G1 X67.316 Y90.741 E26.86075
G1 X47.733 Y71.158 E28.25136
G1 X47.245 Y71.158 E28.27587
G1 X67.316 Y91.229 E29.70114
G1 X67.316 Y91.717 E29.72565
G1 X46.757 Y71.158 E31.18557
G1 X46.269 Y71.158 E31.21008
G1 X67.316 Y92.205 E32.70466
G1 X67.316 Y92.693 E32.72917
G1 X45.781 Y71.158 E34.25840
G1 X45.293 Y71.158 E34.28291
G1 X67.316 Y93.181 E35.84681
G1 X67.316 Y93.669 E35.87131
G1 X44.805 Y71.158 E37.46986
G1 X44.317 Y71.158 E37.49437
G1 X67.316 Y94.157 E39.12757
G1 X67.316 Y94.645 E39.15208
G1 X43.829 Y71.158 E40.81994
G1 X43.341 Y71.158 E40.84445
G1 X67.316 Y95.133 E42.54697
G1 X67.316 Y95.621 E42.57147
G1 X42.853 Y71.158 E44.30865
G1 X42.365 Y71.158 E44.33315
G1 X67.316 Y96.109 E46.10498
G1 X67.316 Y96.597 E46.12949
G1 X41.877 Y71.158 E47.93598
G1 X41.389 Y71.158 E47.96048
G1 X67.316 Y97.085 E49.80163
G1 X67.316 Y97.573 E49.82613
G1 X40.901 Y71.158 E51.70193
G1 X40.413 Y71.158 E51.72644
G1 X67.316 Y98.061 E53.63689
G1 X67.316 Y98.549 E53.66140
G1 X39.925 Y71.158 E55.60651
G1 X39.437 Y71.158 E55.63102
G1 X67.316 Y99.037 E57.61078
G1 X67.316 Y99.525 E57.63529
G1 X38.949 Y71.158 E59.64971
G1 X38.658 Y71.158 E59.66431
G1 X38.658 Y71.356 E59.67422
G1 X67.316 Y100.013 E61.70928
G1 X67.316 Y100.501 E61.73379
G1 X38.658 Y71.844 E63.76885
G1 X38.658 Y72.332 E63.79336
G1 X67.316 Y100.989 E65.82843
G1 X67.316 Y101.477 E65.85293
G1 X38.658 Y72.820 E67.88800
G1 X38.658 Y73.308 E67.91250
G1 X67.316 Y101.965 E69.94757
G1 X67.316 Y102.453 E69.97207
G1 X38.658 Y73.796 E72.00714
G1 X38.658 Y74.284 E72.03164
G1 X67.316 Y102.941 E74.06671
G1 X67.316 Y103.429 E74.09121
G1 X38.658 Y74.772 E76.12628
G1 X38.658 Y75.260 E76.15079
G1 X67.316 Y103.917 E78.18585
G1 X67.316 Y104.405 E78.21036
G1 X38.658 Y75.748 E80.24542
G1 X38.658 Y76.236 E80.26993
G1 X67.316 Y104.893 E82.30499
G1 X67.316 Y105.381 E82.32950
G1 X38.658 Y76.724 E84.36456
G1 X38.658 Y77.212 E84.38907
G1 X67.316 Y105.869 E86.42414
G1 X67.316 Y106.358 E86.44864
G1 X38.658 Y77.700 E88.48371
G1 X38.658 Y78.188 E88.50821
G1 X67.316 Y106.846 E90.54328
G1 X67.316 Y107.334 E90.56778
G1 X38.658 Y78.676 E92.60285
G1 X38.658 Y79.164 E92.62735
G1 X67.316 Y107.822 E94.66242
G1 X67.316 Y108.310 E94.68693
G1 X38.658 Y79.652 E96.72199
G1 X38.658 Y80.140 E96.74650
G1 X67.316 Y108.798 E98.78156
G1 X67.316 Y109.286 E98.80607
G1 X38.658 Y80.628 E100.84113
G1 X38.658 Y81.116 E100.86564
G1 X67.316 Y109.774 E102.90070
G1 X67.316 Y110.262 E102.92521
G1 X38.658 Y81.604 E104.96028
G1 X38.658 Y82.092 E104.98478
G1 X67.316 Y110.750 E107.01985
G1 X67.316 Y111.238 E107.04435
G1 X38.658 Y82.580 E109.07942
G1 X38.658 Y83.068 E109.10392
G1 X67.316 Y111.726 E111.13899
G1 X67.316 Y112.214 E111.16349
G1 X38.658 Y83.556 E113.19856
G1 X38.658 Y84.044 E113.22307
G1 X67.316 Y112.702 E115.25813
G1 X67.316 Y113.190 E115.28264
G1 X38.658 Y84.532 E117.31770
G1 X38.658 Y85.020 E117.34221
G1 X67.316 Y113.678 E119.37727
G1 X67.316 Y114.166 E119.40178
G1 X38.658 Y85.508 E121.43684
G1 X38.658 Y85.996 E121.46135
G1 X67.316 Y114.654 E123.49641
G1 X67.316 Y115.142 E123.52092
G1 X38.658 Y86.484 E125.55599
G1 X38.658 Y86.972 E125.58049
G1 X70.324 Y118.638 E127.82918
G1 X70.403 Y119.205 E127.85790
G1 X38.658 Y87.460 E130.11217
G1 X38.658 Y87.948 E130.13667
G1 X79.552 Y128.842 E133.04063
G1 X80.040 Y128.842 E133.06514
G1 X72.270 Y121.072 E133.61690
G1 X72.836 Y121.150 E133.64563
G1 X80.528 Y128.842 E134.19182
G1 X81.016 Y128.842 E134.21632
G1 X73.300 Y121.126 E134.76426
G1 X73.665 Y121.077 E134.78276
G1 X73.718 Y121.056 E134.78563
G1 X81.504 Y128.842 E135.33853
G1 X81.992 Y128.842 E135.36304
G1 X74.063 Y120.913 E135.92610
G1 X74.309 Y120.811 E135.93945
G1 X74.388 Y120.750 E135.94448
G1 X82.480 Y128.842 E136.51910
G1 X82.968 Y128.842 E136.54360
G1 X74.664 Y120.538 E137.13327
G1 X74.861 Y120.387 E137.14574
G1 X74.922 Y120.308 E137.15074
G1 X83.456 Y128.842 E137.75676
G1 X83.944 Y128.842 E137.78127
G1 X75.134 Y120.032 E138.40689
G1 X75.285 Y119.834 E138.41939
G1 X75.326 Y119.736 E138.42473
G1 X84.432 Y128.842 E139.07136
G1 X84.920 Y128.842 E139.09587
G1 X75.469 Y119.391 E139.76700
G1 X75.552 Y119.191 E139.77788
G1 X75.576 Y119.009 E139.78706
G1 X85.408 Y128.842 E140.48527
G1 X85.896 Y128.842 E140.50977
G1 X75.632 Y118.578 E141.23861
G1 X75.643 Y118.500 E141.24257
G1 X75.582 Y118.040 E141.26587
G1 X86.384 Y128.842 E142.03294
G1 X86.872 Y128.842 E142.05744
G1 X73.961 Y115.931 E142.97426
G1 X73.978 Y115.658 E142.98798
G1 X74.177 Y115.658 E142.99793
G1 X87.360 Y128.842 E143.93411
G1 X87.848 Y128.842 E143.95862
G1 X74.665 Y115.658 E144.89480
G1 X75.153 Y115.658 E144.91931
G1 X88.336 Y128.842 E145.85549
G1 X88.824 Y128.842 E145.87999
G1 X75.641 Y115.658 E146.81617
G1 X76.129 Y115.658 E146.84068
G1 X89.312 Y128.842 E147.77686
G1 X89.800 Y128.842 E147.80137
G1 X76.617 Y115.658 E148.73755
G1 X77.105 Y115.658 E148.76205
G1 X90.288 Y128.842 E149.69824
G1 X90.776 Y128.842 E149.72274
G1 X77.593 Y115.658 E150.65892
G1 X78.081 Y115.658 E150.68343
G1 X91.264 Y128.842 E151.61961
G1 X91.752 Y128.842 E151.64411
G1 X78.569 Y115.658 E152.58030
G1 X78.633 Y115.658 E152.58350
G1 X78.633 Y115.234 E152.60480
G1 X92.240 Y128.842 E153.57110
G1 X92.728 Y128.842 E153.59561
G1 X78.633 Y114.746 E154.59657
G1 X78.633 Y114.258 E154.62107
G1 X93.216 Y128.842 E155.65669
G1 X93.704 Y128.842 E155.68119
G1 X78.633 Y113.770 E156.75147
G1 X78.633 Y113.282 E156.77597
G1 X94.192 Y128.842 E157.88090
G1 X94.680 Y128.842 E157.90540
G1 X78.633 Y112.794 E159.04499
G1 X78.633 Y112.306 E159.06949
G1 X95.168 Y128.842 E160.24373
G1 X95.656 Y128.842 E160.26824
G1 X78.633 Y111.818 E161.47713
G1 X78.633 Y111.330 E161.50164
G1 X96.144 Y128.842 E162.74519
G1 X96.632 Y128.842 E162.76970
G1 X78.633 Y110.842 E164.04790
G1 X78.633 Y110.354 E164.07241
G1 X97.120 Y128.842 E165.38527
G1 X97.608 Y128.842 E165.40978
G1 X78.633 Y109.866 E166.75730
G1 X78.633 Y109.378 E166.78180
G1 X98.096 Y128.842 E168.16398
G1 X98.584 Y128.842 E168.18849
G1 X78.633 Y108.890 E169.60532
G1 X78.633 Y108.402 E169.62982
G1 X99.072 Y128.842 E171.08131
G1 X99.560 Y128.842 E171.10582
G1 X78.633 Y107.914 E172.59196
G1 X78.633 Y107.426 E172.61647
G1 X100.048 Y128.842 E174.13727
G1 X100.536 Y128.842 E174.16177
G1 X78.633 Y106.938 E175.71723
G1 X78.633 Y106.450 E175.74173
G1 X101.024 Y128.842 E177.33185
G1 X101.512 Y128.842 E177.35635
G1 X78.633 Y105.962 E178.98112
G1 X78.633 Y105.474 E179.00562
G1 X102.000 Y128.842 E180.66505
G1 X102.489 Y128.842 E180.68955
G1 X78.633 Y104.986 E182.38363
G1 X78.633 Y104.498 E182.40814
G1 X102.977 Y128.842 E184.13688
G1 X103.465 Y128.842 E184.16138
G1 X78.633 Y104.010 E185.92477
G1 X78.633 Y103.522 E185.94928
G1 X103.953 Y128.842 E187.74733
G1 X104.441 Y128.842 E187.77183
G1 X78.633 Y103.034 E189.60454
G1 X78.633 Y102.546 E189.62904
G1 X104.929 Y128.842 E191.49640
G1 X105.417 Y128.842 E191.52091
G1 X78.633 Y102.058 E193.42293
G1 X78.633 Y101.570 E193.44743
G1 X105.905 Y128.842 E195.38411
G1 X106.393 Y128.842 E195.40861
G1 X78.633 Y101.082 E197.37994
G1 X78.633 Y100.594 E197.40445
G1 X106.881 Y128.842 E199.41043
G1 X107.369 Y128.842 E199.43494
G1 X78.633 Y100.106 E201.47558
G1 X78.633 Y99.618 E201.50008
